; GCODE Generated by CNC Enhancement on 2023-12-04 
G21 ; mm-mode
; Operation 0: CNC: Vector (no offset)
; Endmill Diameter: 6.35

G0 Z10; move to z-safe height
G0 F1000 X217.2028 Y51.5765

G0 Z0
G1 F300 Z-1.0000
G1 F1000 X219.0825 Y50.4912 Z-1.0000 S1

G0 Z10; move to z-safe height
G0 X217.2028 Y51.5765

G0 Z0
G1 F300 Z-2.0000
G1 F1000 X219.0825 Y50.4912 Z-2.0000 S1

G0 Z10; move to z-safe height
G0 X217.2028 Y51.5765

G0 Z0
G1 F300 Z-3.0000
G1 F1000 X219.0825 Y50.4912 Z-3.0000 S1

G0 Z10; move to z-safe height
G0 X217.2028 Y51.5765

G0 Z0
G1 F300 Z-4.0000
G1 F1000 X219.0825 Y50.4912 Z-4.0000 S1

G0 Z10; move to z-safe height
G0 X217.2028 Y51.5765

G0 Z0
G1 F300 Z-5.0000
G1 F1000 X219.0825 Y50.4912 Z-5.0000 S1

G0 Z10; move to z-safe height
G0 X217.2028 Y51.5765

G0 Z0
G1 F300 Z-6.0000
G1 F1000 X219.0825 Y50.4912 Z-6.0000 S1

G0 Z10; move to z-safe height
G0 X216.6325 Y46.2477

G0 Z0
G1 F300 Z-1.0000
G1 F1000 X214.7528 Y47.3330 Z-1.0000 S1

G0 Z10; move to z-safe height
G0 X216.6325 Y46.2477

G0 Z0
G1 F300 Z-2.0000
G1 F1000 X214.7528 Y47.3330 Z-2.0000 S1

G0 Z10; move to z-safe height
G0 X216.6325 Y46.2477

G0 Z0
G1 F300 Z-3.0000
G1 F1000 X214.7528 Y47.3330 Z-3.0000 S1

G0 Z10; move to z-safe height
G0 X216.6325 Y46.2477

G0 Z0
G1 F300 Z-4.0000
G1 F1000 X214.7528 Y47.3330 Z-4.0000 S1

G0 Z10; move to z-safe height
G0 X216.6325 Y46.2477

G0 Z0
G1 F300 Z-5.0000
G1 F1000 X214.7528 Y47.3330 Z-5.0000 S1

G0 Z10; move to z-safe height
G0 X216.6325 Y46.2477

G0 Z0
G1 F300 Z-6.0000
G1 F1000 X214.7528 Y47.3330 Z-6.0000 S1

G0 Z10; move to z-safe height
G0 X214.7528 Y26.6670

G0 Z0
G1 F300 Z-1.0000
G1 F1000 X216.6325 Y27.7523 Z-1.0000 S1

G0 Z10; move to z-safe height
G0 X214.7528 Y26.6670

G0 Z0
G1 F300 Z-2.0000
G1 F1000 X216.6325 Y27.7523 Z-2.0000 S1

G0 Z10; move to z-safe height
G0 X214.7528 Y26.6670

G0 Z0
G1 F300 Z-3.0000
G1 F1000 X216.6325 Y27.7523 Z-3.0000 S1

G0 Z10; move to z-safe height
G0 X214.7528 Y26.6670

G0 Z0
G1 F300 Z-4.0000
G1 F1000 X216.6325 Y27.7523 Z-4.0000 S1

G0 Z10; move to z-safe height
G0 X214.7528 Y26.6670

G0 Z0
G1 F300 Z-5.0000
G1 F1000 X216.6325 Y27.7523 Z-5.0000 S1

G0 Z10; move to z-safe height
G0 X214.7528 Y26.6670

G0 Z0
G1 F300 Z-6.0000
G1 F1000 X216.6325 Y27.7523 Z-6.0000 S1

G0 Z10; move to z-safe height
G0 X219.0825 Y23.5088

G0 Z0
G1 F300 Z-1.0000
G1 F1000 X217.2028 Y22.4235 Z-1.0000 S1

G0 Z10; move to z-safe height
G0 X219.0825 Y23.5088

G0 Z0
G1 F300 Z-2.0000
G1 F1000 X217.2028 Y22.4235 Z-2.0000 S1

G0 Z10; move to z-safe height
G0 X219.0825 Y23.5088

G0 Z0
G1 F300 Z-3.0000
G1 F1000 X217.2028 Y22.4235 Z-3.0000 S1

G0 Z10; move to z-safe height
G0 X219.0825 Y23.5088

G0 Z0
G1 F300 Z-4.0000
G1 F1000 X217.2028 Y22.4235 Z-4.0000 S1

G0 Z10; move to z-safe height
G0 X219.0825 Y23.5088

G0 Z0
G1 F300 Z-5.0000
G1 F1000 X217.2028 Y22.4235 Z-5.0000 S1

G0 Z10; move to z-safe height
G0 X219.0825 Y23.5088

G0 Z0
G1 F300 Z-6.0000
G1 F1000 X217.2028 Y22.4235 Z-6.0000 S1

G0 Z10; move to z-safe height
G0 X235.1000 Y12.0906

G0 Z0
G1 F300 Z-1.0000
G1 F1000 X235.1000 Y14.2610 Z-1.0000 S1

G0 Z10; move to z-safe height
G0 X235.1000 Y12.0906

G0 Z0
G1 F300 Z-2.0000
G1 F1000 X235.1000 Y14.2610 Z-2.0000 S1

G0 Z10; move to z-safe height
G0 X235.1000 Y12.0906

G0 Z0
G1 F300 Z-3.0000
G1 F1000 X235.1000 Y14.2610 Z-3.0000 S1

G0 Z10; move to z-safe height
G0 X235.1000 Y12.0906

G0 Z0
G1 F300 Z-4.0000
G1 F1000 X235.1000 Y14.2610 Z-4.0000 S1

G0 Z10; move to z-safe height
G0 X235.1000 Y12.0906

G0 Z0
G1 F300 Z-5.0000
G1 F1000 X235.1000 Y14.2610 Z-5.0000 S1

G0 Z10; move to z-safe height
G0 X235.1000 Y12.0906

G0 Z0
G1 F300 Z-6.0000
G1 F1000 X235.1000 Y14.2610 Z-6.0000 S1

G0 Z10; move to z-safe height
G0 X240.0000 Y14.2610

G0 Z0
G1 F300 Z-1.0000
G1 F1000 X240.0000 Y2.0000 Z-1.0000 S1

G0 Z10; move to z-safe height
G0 X240.0000 Y14.2610

G0 Z0
G1 F300 Z-2.0000
G1 F1000 X240.0000 Y2.0000 Z-2.0000 S1

G0 Z10; move to z-safe height
G0 X240.0000 Y14.2610

G0 Z0
G1 F300 Z-3.0000
G1 F1000 X240.0000 Y2.0000 Z-3.0000 S1

G0 Z10; move to z-safe height
G0 X240.0000 Y14.2610

G0 Z0
G1 F300 Z-4.0000
G1 F1000 X240.0000 Y2.0000 Z-4.0000 S1

G0 Z10; move to z-safe height
G0 X240.0000 Y14.2610

G0 Z0
G1 F300 Z-5.0000
G1 F1000 X240.0000 Y2.0000 Z-5.0000 S1

G0 Z10; move to z-safe height
G0 X240.0000 Y14.2610

G0 Z0
G1 F300 Z-6.0000
G1 F1000 X240.0000 Y2.0000 Z-6.0000 S1

G0 Z10; move to z-safe height
G0 X238.0000 Y0.0000

G0 Z0
G1 F300 Z-1.0000
G1 F1000 X214.2194 Y0.0000 Z-1.0000 S1

G0 Z10; move to z-safe height
G0 X238.0000 Y0.0000

G0 Z0
G1 F300 Z-2.0000
G1 F1000 X214.2194 Y0.0000 Z-2.0000 S1

G0 Z10; move to z-safe height
G0 X238.0000 Y0.0000

G0 Z0
G1 F300 Z-3.0000
G1 F1000 X214.2194 Y0.0000 Z-3.0000 S1

G0 Z10; move to z-safe height
G0 X238.0000 Y0.0000

G0 Z0
G1 F300 Z-4.0000
G1 F1000 X214.2194 Y0.0000 Z-4.0000 S1

G0 Z10; move to z-safe height
G0 X238.0000 Y0.0000

G0 Z0
G1 F300 Z-5.0000
G1 F1000 X214.2194 Y0.0000 Z-5.0000 S1

G0 Z10; move to z-safe height
G0 X238.0000 Y0.0000

G0 Z0
G1 F300 Z-6.0000
G1 F1000 X214.2194 Y0.0000 Z-6.0000 S1

G0 Z10; move to z-safe height
G0 X212.0648 Y0.6299

G0 Z0
G1 F300 Z-1.0000
G1 F1000 X207.1812 Y3.7522 Z-1.0000 S1

G0 Z10; move to z-safe height
G0 X212.0648 Y0.6299

G0 Z0
G1 F300 Z-2.0000
G1 F1000 X207.1812 Y3.7522 Z-2.0000 S1

G0 Z10; move to z-safe height
G0 X212.0648 Y0.6299

G0 Z0
G1 F300 Z-3.0000
G1 F1000 X207.1812 Y3.7522 Z-3.0000 S1

G0 Z10; move to z-safe height
G0 X212.0648 Y0.6299

G0 Z0
G1 F300 Z-4.0000
G1 F1000 X207.1812 Y3.7522 Z-4.0000 S1

G0 Z10; move to z-safe height
G0 X212.0648 Y0.6299

G0 Z0
G1 F300 Z-5.0000
G1 F1000 X207.1812 Y3.7522 Z-5.0000 S1

G0 Z10; move to z-safe height
G0 X212.0648 Y0.6299

G0 Z0
G1 F300 Z-6.0000
G1 F1000 X207.1812 Y3.7522 Z-6.0000 S1

G0 Z10; move to z-safe height
G0 X158.3150 Y22.0000

G0 Z0
G1 F300 Z-1.0000
G1 F1000 X15.0000 Y22.0000 Z-1.0000 S1

G0 Z10; move to z-safe height
G0 X158.3150 Y22.0000

G0 Z0
G1 F300 Z-2.0000
G1 F1000 X15.0000 Y22.0000 Z-2.0000 S1

G0 Z10; move to z-safe height
G0 X158.3150 Y22.0000

G0 Z0
G1 F300 Z-3.0000
G1 F1000 X15.0000 Y22.0000 Z-3.0000 S1

G0 Z10; move to z-safe height
G0 X158.3150 Y22.0000

G0 Z0
G1 F300 Z-4.0000
G1 F1000 X15.0000 Y22.0000 Z-4.0000 S1

G0 Z10; move to z-safe height
G0 X158.3150 Y22.0000

G0 Z0
G1 F300 Z-5.0000
G1 F1000 X15.0000 Y22.0000 Z-5.0000 S1

G0 Z10; move to z-safe height
G0 X158.3150 Y22.0000

G0 Z0
G1 F300 Z-6.0000
G1 F1000 X15.0000 Y22.0000 Z-6.0000 S1

G0 Z10; move to z-safe height
G0 X15.0000 Y52.0000

G0 Z0
G1 F300 Z-1.0000
G1 F1000 X158.3150 Y52.0000 Z-1.0000 S1

G0 Z10; move to z-safe height
G0 X15.0000 Y52.0000

G0 Z0
G1 F300 Z-2.0000
G1 F1000 X158.3150 Y52.0000 Z-2.0000 S1

G0 Z10; move to z-safe height
G0 X15.0000 Y52.0000

G0 Z0
G1 F300 Z-3.0000
G1 F1000 X158.3150 Y52.0000 Z-3.0000 S1

G0 Z10; move to z-safe height
G0 X15.0000 Y52.0000

G0 Z0
G1 F300 Z-4.0000
G1 F1000 X158.3150 Y52.0000 Z-4.0000 S1

G0 Z10; move to z-safe height
G0 X15.0000 Y52.0000

G0 Z0
G1 F300 Z-5.0000
G1 F1000 X158.3150 Y52.0000 Z-5.0000 S1

G0 Z10; move to z-safe height
G0 X15.0000 Y52.0000

G0 Z0
G1 F300 Z-6.0000
G1 F1000 X158.3150 Y52.0000 Z-6.0000 S1

G0 Z10; move to z-safe height
G0 X207.1812 Y70.2478

G0 Z0
G1 F300 Z-1.0000
G1 F1000 X212.0648 Y73.3701 Z-1.0000 S1

G0 Z10; move to z-safe height
G0 X207.1812 Y70.2478

G0 Z0
G1 F300 Z-2.0000
G1 F1000 X212.0648 Y73.3701 Z-2.0000 S1

G0 Z10; move to z-safe height
G0 X207.1812 Y70.2478

G0 Z0
G1 F300 Z-3.0000
G1 F1000 X212.0648 Y73.3701 Z-3.0000 S1

G0 Z10; move to z-safe height
G0 X207.1812 Y70.2478

G0 Z0
G1 F300 Z-4.0000
G1 F1000 X212.0648 Y73.3701 Z-4.0000 S1

G0 Z10; move to z-safe height
G0 X207.1812 Y70.2478

G0 Z0
G1 F300 Z-5.0000
G1 F1000 X212.0648 Y73.3701 Z-5.0000 S1

G0 Z10; move to z-safe height
G0 X207.1812 Y70.2478

G0 Z0
G1 F300 Z-6.0000
G1 F1000 X212.0648 Y73.3701 Z-6.0000 S1

G0 Z10; move to z-safe height
G0 X214.2194 Y74.0000

G0 Z0
G1 F300 Z-1.0000
G1 F1000 X238.0000 Y74.0000 Z-1.0000 S1

G0 Z10; move to z-safe height
G0 X214.2194 Y74.0000

G0 Z0
G1 F300 Z-2.0000
G1 F1000 X238.0000 Y74.0000 Z-2.0000 S1

G0 Z10; move to z-safe height
G0 X214.2194 Y74.0000

G0 Z0
G1 F300 Z-3.0000
G1 F1000 X238.0000 Y74.0000 Z-3.0000 S1

G0 Z10; move to z-safe height
G0 X214.2194 Y74.0000

G0 Z0
G1 F300 Z-4.0000
G1 F1000 X238.0000 Y74.0000 Z-4.0000 S1

G0 Z10; move to z-safe height
G0 X214.2194 Y74.0000

G0 Z0
G1 F300 Z-5.0000
G1 F1000 X238.0000 Y74.0000 Z-5.0000 S1

G0 Z10; move to z-safe height
G0 X214.2194 Y74.0000

G0 Z0
G1 F300 Z-6.0000
G1 F1000 X238.0000 Y74.0000 Z-6.0000 S1

G0 Z10; move to z-safe height
G0 X240.0000 Y72.0000

G0 Z0
G1 F300 Z-1.0000
G1 F1000 X240.0000 Y59.7390 Z-1.0000 S1

G0 Z10; move to z-safe height
G0 X240.0000 Y72.0000

G0 Z0
G1 F300 Z-2.0000
G1 F1000 X240.0000 Y59.7390 Z-2.0000 S1

G0 Z10; move to z-safe height
G0 X240.0000 Y72.0000

G0 Z0
G1 F300 Z-3.0000
G1 F1000 X240.0000 Y59.7390 Z-3.0000 S1

G0 Z10; move to z-safe height
G0 X240.0000 Y72.0000

G0 Z0
G1 F300 Z-4.0000
G1 F1000 X240.0000 Y59.7390 Z-4.0000 S1

G0 Z10; move to z-safe height
G0 X240.0000 Y72.0000

G0 Z0
G1 F300 Z-5.0000
G1 F1000 X240.0000 Y59.7390 Z-5.0000 S1

G0 Z10; move to z-safe height
G0 X240.0000 Y72.0000

G0 Z0
G1 F300 Z-6.0000
G1 F1000 X240.0000 Y59.7390 Z-6.0000 S1

G0 Z10; move to z-safe height
G0 X235.1000 Y59.7390

G0 Z0
G1 F300 Z-1.0000
G1 F1000 X235.1000 Y61.9094 Z-1.0000 S1

G0 Z10; move to z-safe height
G0 X235.1000 Y59.7390

G0 Z0
G1 F300 Z-2.0000
G1 F1000 X235.1000 Y61.9094 Z-2.0000 S1

G0 Z10; move to z-safe height
G0 X235.1000 Y59.7390

G0 Z0
G1 F300 Z-3.0000
G1 F1000 X235.1000 Y61.9094 Z-3.0000 S1

G0 Z10; move to z-safe height
G0 X235.1000 Y59.7390

G0 Z0
G1 F300 Z-4.0000
G1 F1000 X235.1000 Y61.9094 Z-4.0000 S1

G0 Z10; move to z-safe height
G0 X235.1000 Y59.7390

G0 Z0
G1 F300 Z-5.0000
G1 F1000 X235.1000 Y61.9094 Z-5.0000 S1

G0 Z10; move to z-safe height
G0 X235.1000 Y59.7390

G0 Z0
G1 F300 Z-6.0000
G1 F1000 X235.1000 Y61.9094 Z-6.0000 S1

G0 Z10; move to z-safe height
G0 X235.3000 Y14.2610

G0 Z0
G1 F300 Z-1.0000
G1 F1000 X235.3197 Y14.4600 Z-1.0000 S1
G1 F1000 X235.3171 Y14.4603 Z-1.0000 S1
G1 F1000 X235.3145 Y14.4605 Z-1.0000 S1
G1 F1000 X235.3119 Y14.4606 Z-1.0000 S1
G1 F1000 X235.3093 Y14.4608 Z-1.0000 S1
G1 F1000 X235.3067 Y14.4609 Z-1.0000 S1
G1 F1000 X235.3041 Y14.4610 Z-1.0000 S1
G1 F1000 X235.3015 Y14.4610 Z-1.0000 S1
G1 F1000 X235.2989 Y14.4610 Z-1.0000 S1
G1 F1000 X235.2962 Y14.4610 Z-1.0000 S1
G1 F1000 X235.2936 Y14.4609 Z-1.0000 S1
G1 F1000 X235.2910 Y14.4608 Z-1.0000 S1
G1 F1000 X235.2884 Y14.4607 Z-1.0000 S1
G1 F1000 X235.2858 Y14.4605 Z-1.0000 S1
G1 F1000 X235.2832 Y14.4603 Z-1.0000 S1
G1 F1000 X235.2806 Y14.4601 Z-1.0000 S1
G1 F1000 X235.2780 Y14.4598 Z-1.0000 S1
G1 F1000 X235.2754 Y14.4595 Z-1.0000 S1
G1 F1000 X235.2729 Y14.4591 Z-1.0000 S1
G1 F1000 X235.2703 Y14.4588 Z-1.0000 S1
G1 F1000 X235.2677 Y14.4584 Z-1.0000 S1
G1 F1000 X235.2651 Y14.4579 Z-1.0000 S1
G1 F1000 X235.2626 Y14.4575 Z-1.0000 S1
G1 F1000 X235.2600 Y14.4570 Z-1.0000 S1
G1 F1000 X235.2574 Y14.4564 Z-1.0000 S1
G1 F1000 X235.2549 Y14.4558 Z-1.0000 S1
G1 F1000 X235.2524 Y14.4552 Z-1.0000 S1
G1 F1000 X235.2498 Y14.4546 Z-1.0000 S1
G1 F1000 X235.2473 Y14.4539 Z-1.0000 S1
G1 F1000 X235.2448 Y14.4532 Z-1.0000 S1
G1 F1000 X235.2423 Y14.4525 Z-1.0000 S1
G1 F1000 X235.2398 Y14.4517 Z-1.0000 S1
G1 F1000 X235.2373 Y14.4509 Z-1.0000 S1
G1 F1000 X235.2349 Y14.4501 Z-1.0000 S1
G1 F1000 X235.2324 Y14.4492 Z-1.0000 S1
G1 F1000 X235.2299 Y14.4483 Z-1.0000 S1
G1 F1000 X235.2275 Y14.4474 Z-1.0000 S1
G1 F1000 X235.2251 Y14.4464 Z-1.0000 S1
G1 F1000 X235.2227 Y14.4454 Z-1.0000 S1
G1 F1000 X235.2203 Y14.4444 Z-1.0000 S1
G1 F1000 X235.2179 Y14.4434 Z-1.0000 S1
G1 F1000 X235.2155 Y14.4423 Z-1.0000 S1
G1 F1000 X235.2132 Y14.4412 Z-1.0000 S1
G1 F1000 X235.2108 Y14.4400 Z-1.0000 S1
G1 F1000 X235.2085 Y14.4388 Z-1.0000 S1
G1 F1000 X235.2062 Y14.4376 Z-1.0000 S1
G1 F1000 X235.2039 Y14.4364 Z-1.0000 S1
G1 F1000 X235.2016 Y14.4351 Z-1.0000 S1
G1 F1000 X235.1993 Y14.4338 Z-1.0000 S1
G1 F1000 X235.1971 Y14.4325 Z-1.0000 S1
G1 F1000 X235.1949 Y14.4311 Z-1.0000 S1
G1 F1000 X235.1927 Y14.4298 Z-1.0000 S1
G1 F1000 X235.1905 Y14.4283 Z-1.0000 S1
G1 F1000 X235.1883 Y14.4269 Z-1.0000 S1
G1 F1000 X235.1861 Y14.4254 Z-1.0000 S1
G1 F1000 X235.1840 Y14.4239 Z-1.0000 S1
G1 F1000 X235.1819 Y14.4224 Z-1.0000 S1
G1 F1000 X235.1798 Y14.4208 Z-1.0000 S1
G1 F1000 X235.1777 Y14.4193 Z-1.0000 S1
G1 F1000 X235.1757 Y14.4177 Z-1.0000 S1
G1 F1000 X235.1736 Y14.4160 Z-1.0000 S1
G1 F1000 X235.1716 Y14.4144 Z-1.0000 S1
G1 F1000 X235.1696 Y14.4127 Z-1.0000 S1
G1 F1000 X235.1677 Y14.4110 Z-1.0000 S1
G1 F1000 X235.1657 Y14.4092 Z-1.0000 S1
G1 F1000 X235.1638 Y14.4075 Z-1.0000 S1
G1 F1000 X235.1619 Y14.4057 Z-1.0000 S1
G1 F1000 X235.1600 Y14.4039 Z-1.0000 S1
G1 F1000 X235.1582 Y14.4020 Z-1.0000 S1
G1 F1000 X235.1563 Y14.4002 Z-1.0000 S1
G1 F1000 X235.1545 Y14.3983 Z-1.0000 S1
G1 F1000 X235.1528 Y14.3964 Z-1.0000 S1
G1 F1000 X235.1510 Y14.3944 Z-1.0000 S1
G1 F1000 X235.1493 Y14.3925 Z-1.0000 S1
G1 F1000 X235.1476 Y14.3905 Z-1.0000 S1
G1 F1000 X235.1459 Y14.3885 Z-1.0000 S1
G1 F1000 X235.1443 Y14.3865 Z-1.0000 S1
G1 F1000 X235.1426 Y14.3844 Z-1.0000 S1
G1 F1000 X235.1410 Y14.3824 Z-1.0000 S1
G1 F1000 X235.1395 Y14.3803 Z-1.0000 S1
G1 F1000 X235.1379 Y14.3782 Z-1.0000 S1
G1 F1000 X235.1364 Y14.3761 Z-1.0000 S1
G1 F1000 X235.1349 Y14.3739 Z-1.0000 S1
G1 F1000 X235.1335 Y14.3718 Z-1.0000 S1
G1 F1000 X235.1320 Y14.3696 Z-1.0000 S1
G1 F1000 X235.1306 Y14.3674 Z-1.0000 S1
G1 F1000 X235.1293 Y14.3652 Z-1.0000 S1
G1 F1000 X235.1279 Y14.3629 Z-1.0000 S1
G1 F1000 X235.1266 Y14.3607 Z-1.0000 S1
G1 F1000 X235.1253 Y14.3584 Z-1.0000 S1
G1 F1000 X235.1241 Y14.3561 Z-1.0000 S1
G1 F1000 X235.1228 Y14.3538 Z-1.0000 S1
G1 F1000 X235.1216 Y14.3515 Z-1.0000 S1
G1 F1000 X235.1205 Y14.3492 Z-1.0000 S1
G1 F1000 X235.1193 Y14.3468 Z-1.0000 S1
G1 F1000 X235.1182 Y14.3444 Z-1.0000 S1
G1 F1000 X235.1172 Y14.3421 Z-1.0000 S1
G1 F1000 X235.1161 Y14.3397 Z-1.0000 S1
G1 F1000 X235.1151 Y14.3373 Z-1.0000 S1
G1 F1000 X235.1141 Y14.3349 Z-1.0000 S1
G1 F1000 X235.1132 Y14.3324 Z-1.0000 S1
G1 F1000 X235.1123 Y14.3300 Z-1.0000 S1
G1 F1000 X235.1114 Y14.3275 Z-1.0000 S1
G1 F1000 X235.1105 Y14.3251 Z-1.0000 S1
G1 F1000 X235.1097 Y14.3226 Z-1.0000 S1
G1 F1000 X235.1089 Y14.3201 Z-1.0000 S1
G1 F1000 X235.1082 Y14.3176 Z-1.0000 S1
G1 F1000 X235.1075 Y14.3151 Z-1.0000 S1
G1 F1000 X235.1068 Y14.3126 Z-1.0000 S1
G1 F1000 X235.1061 Y14.3101 Z-1.0000 S1
G1 F1000 X235.1055 Y14.3075 Z-1.0000 S1
G1 F1000 X235.1049 Y14.3050 Z-1.0000 S1
G1 F1000 X235.1043 Y14.3024 Z-1.0000 S1
G1 F1000 X235.1038 Y14.2999 Z-1.0000 S1
G1 F1000 X235.1033 Y14.2973 Z-1.0000 S1
G1 F1000 X235.1029 Y14.2947 Z-1.0000 S1
G1 F1000 X235.1024 Y14.2922 Z-1.0000 S1
G1 F1000 X235.1021 Y14.2896 Z-1.0000 S1
G1 F1000 X235.1017 Y14.2870 Z-1.0000 S1
G1 F1000 X235.1014 Y14.2844 Z-1.0000 S1
G1 F1000 X235.1011 Y14.2818 Z-1.0000 S1
G1 F1000 X235.1008 Y14.2792 Z-1.0000 S1
G1 F1000 X235.1006 Y14.2766 Z-1.0000 S1
G1 F1000 X235.1004 Y14.2740 Z-1.0000 S1
G1 F1000 X235.1003 Y14.2714 Z-1.0000 S1
G1 F1000 X235.1002 Y14.2688 Z-1.0000 S1
G1 F1000 X235.1001 Y14.2662 Z-1.0000 S1
G1 F1000 X235.1000 Y14.2636 Z-1.0000 S1
G1 F1000 X235.1000 Y14.2610 Z-1.0000 S1
G1 F1000 X235.3000 Y14.2610 Z-1.0000 S1
G1 F300 Z-2.0000
G1 F1000 X235.3197 Y14.4600 Z-2.0000 S1
G1 F1000 X235.3171 Y14.4603 Z-2.0000 S1
G1 F1000 X235.3145 Y14.4605 Z-2.0000 S1
G1 F1000 X235.3119 Y14.4606 Z-2.0000 S1
G1 F1000 X235.3093 Y14.4608 Z-2.0000 S1
G1 F1000 X235.3067 Y14.4609 Z-2.0000 S1
G1 F1000 X235.3041 Y14.4610 Z-2.0000 S1
G1 F1000 X235.3015 Y14.4610 Z-2.0000 S1
G1 F1000 X235.2989 Y14.4610 Z-2.0000 S1
G1 F1000 X235.2962 Y14.4610 Z-2.0000 S1
G1 F1000 X235.2936 Y14.4609 Z-2.0000 S1
G1 F1000 X235.2910 Y14.4608 Z-2.0000 S1
G1 F1000 X235.2884 Y14.4607 Z-2.0000 S1
G1 F1000 X235.2858 Y14.4605 Z-2.0000 S1
G1 F1000 X235.2832 Y14.4603 Z-2.0000 S1
G1 F1000 X235.2806 Y14.4601 Z-2.0000 S1
G1 F1000 X235.2780 Y14.4598 Z-2.0000 S1
G1 F1000 X235.2754 Y14.4595 Z-2.0000 S1
G1 F1000 X235.2729 Y14.4591 Z-2.0000 S1
G1 F1000 X235.2703 Y14.4588 Z-2.0000 S1
G1 F1000 X235.2677 Y14.4584 Z-2.0000 S1
G1 F1000 X235.2651 Y14.4579 Z-2.0000 S1
G1 F1000 X235.2626 Y14.4575 Z-2.0000 S1
G1 F1000 X235.2600 Y14.4570 Z-2.0000 S1
G1 F1000 X235.2574 Y14.4564 Z-2.0000 S1
G1 F1000 X235.2549 Y14.4558 Z-2.0000 S1
G1 F1000 X235.2524 Y14.4552 Z-2.0000 S1
G1 F1000 X235.2498 Y14.4546 Z-2.0000 S1
G1 F1000 X235.2473 Y14.4539 Z-2.0000 S1
G1 F1000 X235.2448 Y14.4532 Z-2.0000 S1
G1 F1000 X235.2423 Y14.4525 Z-2.0000 S1
G1 F1000 X235.2398 Y14.4517 Z-2.0000 S1
G1 F1000 X235.2373 Y14.4509 Z-2.0000 S1
G1 F1000 X235.2349 Y14.4501 Z-2.0000 S1
G1 F1000 X235.2324 Y14.4492 Z-2.0000 S1
G1 F1000 X235.2299 Y14.4483 Z-2.0000 S1
G1 F1000 X235.2275 Y14.4474 Z-2.0000 S1
G1 F1000 X235.2251 Y14.4464 Z-2.0000 S1
G1 F1000 X235.2227 Y14.4454 Z-2.0000 S1
G1 F1000 X235.2203 Y14.4444 Z-2.0000 S1
G1 F1000 X235.2179 Y14.4434 Z-2.0000 S1
G1 F1000 X235.2155 Y14.4423 Z-2.0000 S1
G1 F1000 X235.2132 Y14.4412 Z-2.0000 S1
G1 F1000 X235.2108 Y14.4400 Z-2.0000 S1
G1 F1000 X235.2085 Y14.4388 Z-2.0000 S1
G1 F1000 X235.2062 Y14.4376 Z-2.0000 S1
G1 F1000 X235.2039 Y14.4364 Z-2.0000 S1
G1 F1000 X235.2016 Y14.4351 Z-2.0000 S1
G1 F1000 X235.1993 Y14.4338 Z-2.0000 S1
G1 F1000 X235.1971 Y14.4325 Z-2.0000 S1
G1 F1000 X235.1949 Y14.4311 Z-2.0000 S1
G1 F1000 X235.1927 Y14.4298 Z-2.0000 S1
G1 F1000 X235.1905 Y14.4283 Z-2.0000 S1
G1 F1000 X235.1883 Y14.4269 Z-2.0000 S1
G1 F1000 X235.1861 Y14.4254 Z-2.0000 S1
G1 F1000 X235.1840 Y14.4239 Z-2.0000 S1
G1 F1000 X235.1819 Y14.4224 Z-2.0000 S1
G1 F1000 X235.1798 Y14.4208 Z-2.0000 S1
G1 F1000 X235.1777 Y14.4193 Z-2.0000 S1
G1 F1000 X235.1757 Y14.4177 Z-2.0000 S1
G1 F1000 X235.1736 Y14.4160 Z-2.0000 S1
G1 F1000 X235.1716 Y14.4144 Z-2.0000 S1
G1 F1000 X235.1696 Y14.4127 Z-2.0000 S1
G1 F1000 X235.1677 Y14.4110 Z-2.0000 S1
G1 F1000 X235.1657 Y14.4092 Z-2.0000 S1
G1 F1000 X235.1638 Y14.4075 Z-2.0000 S1
G1 F1000 X235.1619 Y14.4057 Z-2.0000 S1
G1 F1000 X235.1600 Y14.4039 Z-2.0000 S1
G1 F1000 X235.1582 Y14.4020 Z-2.0000 S1
G1 F1000 X235.1563 Y14.4002 Z-2.0000 S1
G1 F1000 X235.1545 Y14.3983 Z-2.0000 S1
G1 F1000 X235.1528 Y14.3964 Z-2.0000 S1
G1 F1000 X235.1510 Y14.3944 Z-2.0000 S1
G1 F1000 X235.1493 Y14.3925 Z-2.0000 S1
G1 F1000 X235.1476 Y14.3905 Z-2.0000 S1
G1 F1000 X235.1459 Y14.3885 Z-2.0000 S1
G1 F1000 X235.1443 Y14.3865 Z-2.0000 S1
G1 F1000 X235.1426 Y14.3844 Z-2.0000 S1
G1 F1000 X235.1410 Y14.3824 Z-2.0000 S1
G1 F1000 X235.1395 Y14.3803 Z-2.0000 S1
G1 F1000 X235.1379 Y14.3782 Z-2.0000 S1
G1 F1000 X235.1364 Y14.3761 Z-2.0000 S1
G1 F1000 X235.1349 Y14.3739 Z-2.0000 S1
G1 F1000 X235.1335 Y14.3718 Z-2.0000 S1
G1 F1000 X235.1320 Y14.3696 Z-2.0000 S1
G1 F1000 X235.1306 Y14.3674 Z-2.0000 S1
G1 F1000 X235.1293 Y14.3652 Z-2.0000 S1
G1 F1000 X235.1279 Y14.3629 Z-2.0000 S1
G1 F1000 X235.1266 Y14.3607 Z-2.0000 S1
G1 F1000 X235.1253 Y14.3584 Z-2.0000 S1
G1 F1000 X235.1241 Y14.3561 Z-2.0000 S1
G1 F1000 X235.1228 Y14.3538 Z-2.0000 S1
G1 F1000 X235.1216 Y14.3515 Z-2.0000 S1
G1 F1000 X235.1205 Y14.3492 Z-2.0000 S1
G1 F1000 X235.1193 Y14.3468 Z-2.0000 S1
G1 F1000 X235.1182 Y14.3444 Z-2.0000 S1
G1 F1000 X235.1172 Y14.3421 Z-2.0000 S1
G1 F1000 X235.1161 Y14.3397 Z-2.0000 S1
G1 F1000 X235.1151 Y14.3373 Z-2.0000 S1
G1 F1000 X235.1141 Y14.3349 Z-2.0000 S1
G1 F1000 X235.1132 Y14.3324 Z-2.0000 S1
G1 F1000 X235.1123 Y14.3300 Z-2.0000 S1
G1 F1000 X235.1114 Y14.3275 Z-2.0000 S1
G1 F1000 X235.1105 Y14.3251 Z-2.0000 S1
G1 F1000 X235.1097 Y14.3226 Z-2.0000 S1
G1 F1000 X235.1089 Y14.3201 Z-2.0000 S1
G1 F1000 X235.1082 Y14.3176 Z-2.0000 S1
G1 F1000 X235.1075 Y14.3151 Z-2.0000 S1
G1 F1000 X235.1068 Y14.3126 Z-2.0000 S1
G1 F1000 X235.1061 Y14.3101 Z-2.0000 S1
G1 F1000 X235.1055 Y14.3075 Z-2.0000 S1
G1 F1000 X235.1049 Y14.3050 Z-2.0000 S1
G1 F1000 X235.1043 Y14.3024 Z-2.0000 S1
G1 F1000 X235.1038 Y14.2999 Z-2.0000 S1
G1 F1000 X235.1033 Y14.2973 Z-2.0000 S1
G1 F1000 X235.1029 Y14.2947 Z-2.0000 S1
G1 F1000 X235.1024 Y14.2922 Z-2.0000 S1
G1 F1000 X235.1021 Y14.2896 Z-2.0000 S1
G1 F1000 X235.1017 Y14.2870 Z-2.0000 S1
G1 F1000 X235.1014 Y14.2844 Z-2.0000 S1
G1 F1000 X235.1011 Y14.2818 Z-2.0000 S1
G1 F1000 X235.1008 Y14.2792 Z-2.0000 S1
G1 F1000 X235.1006 Y14.2766 Z-2.0000 S1
G1 F1000 X235.1004 Y14.2740 Z-2.0000 S1
G1 F1000 X235.1003 Y14.2714 Z-2.0000 S1
G1 F1000 X235.1002 Y14.2688 Z-2.0000 S1
G1 F1000 X235.1001 Y14.2662 Z-2.0000 S1
G1 F1000 X235.1000 Y14.2636 Z-2.0000 S1
G1 F1000 X235.1000 Y14.2610 Z-2.0000 S1
G1 F1000 X235.3000 Y14.2610 Z-2.0000 S1
G1 F300 Z-3.0000
G1 F1000 X235.3197 Y14.4600 Z-3.0000 S1
G1 F1000 X235.3171 Y14.4603 Z-3.0000 S1
G1 F1000 X235.3145 Y14.4605 Z-3.0000 S1
G1 F1000 X235.3119 Y14.4606 Z-3.0000 S1
G1 F1000 X235.3093 Y14.4608 Z-3.0000 S1
G1 F1000 X235.3067 Y14.4609 Z-3.0000 S1
G1 F1000 X235.3041 Y14.4610 Z-3.0000 S1
G1 F1000 X235.3015 Y14.4610 Z-3.0000 S1
G1 F1000 X235.2989 Y14.4610 Z-3.0000 S1
G1 F1000 X235.2962 Y14.4610 Z-3.0000 S1
G1 F1000 X235.2936 Y14.4609 Z-3.0000 S1
G1 F1000 X235.2910 Y14.4608 Z-3.0000 S1
G1 F1000 X235.2884 Y14.4607 Z-3.0000 S1
G1 F1000 X235.2858 Y14.4605 Z-3.0000 S1
G1 F1000 X235.2832 Y14.4603 Z-3.0000 S1
G1 F1000 X235.2806 Y14.4601 Z-3.0000 S1
G1 F1000 X235.2780 Y14.4598 Z-3.0000 S1
G1 F1000 X235.2754 Y14.4595 Z-3.0000 S1
G1 F1000 X235.2729 Y14.4591 Z-3.0000 S1
G1 F1000 X235.2703 Y14.4588 Z-3.0000 S1
G1 F1000 X235.2677 Y14.4584 Z-3.0000 S1
G1 F1000 X235.2651 Y14.4579 Z-3.0000 S1
G1 F1000 X235.2626 Y14.4575 Z-3.0000 S1
G1 F1000 X235.2600 Y14.4570 Z-3.0000 S1
G1 F1000 X235.2574 Y14.4564 Z-3.0000 S1
G1 F1000 X235.2549 Y14.4558 Z-3.0000 S1
G1 F1000 X235.2524 Y14.4552 Z-3.0000 S1
G1 F1000 X235.2498 Y14.4546 Z-3.0000 S1
G1 F1000 X235.2473 Y14.4539 Z-3.0000 S1
G1 F1000 X235.2448 Y14.4532 Z-3.0000 S1
G1 F1000 X235.2423 Y14.4525 Z-3.0000 S1
G1 F1000 X235.2398 Y14.4517 Z-3.0000 S1
G1 F1000 X235.2373 Y14.4509 Z-3.0000 S1
G1 F1000 X235.2349 Y14.4501 Z-3.0000 S1
G1 F1000 X235.2324 Y14.4492 Z-3.0000 S1
G1 F1000 X235.2299 Y14.4483 Z-3.0000 S1
G1 F1000 X235.2275 Y14.4474 Z-3.0000 S1
G1 F1000 X235.2251 Y14.4464 Z-3.0000 S1
G1 F1000 X235.2227 Y14.4454 Z-3.0000 S1
G1 F1000 X235.2203 Y14.4444 Z-3.0000 S1
G1 F1000 X235.2179 Y14.4434 Z-3.0000 S1
G1 F1000 X235.2155 Y14.4423 Z-3.0000 S1
G1 F1000 X235.2132 Y14.4412 Z-3.0000 S1
G1 F1000 X235.2108 Y14.4400 Z-3.0000 S1
G1 F1000 X235.2085 Y14.4388 Z-3.0000 S1
G1 F1000 X235.2062 Y14.4376 Z-3.0000 S1
G1 F1000 X235.2039 Y14.4364 Z-3.0000 S1
G1 F1000 X235.2016 Y14.4351 Z-3.0000 S1
G1 F1000 X235.1993 Y14.4338 Z-3.0000 S1
G1 F1000 X235.1971 Y14.4325 Z-3.0000 S1
G1 F1000 X235.1949 Y14.4311 Z-3.0000 S1
G1 F1000 X235.1927 Y14.4298 Z-3.0000 S1
G1 F1000 X235.1905 Y14.4283 Z-3.0000 S1
G1 F1000 X235.1883 Y14.4269 Z-3.0000 S1
G1 F1000 X235.1861 Y14.4254 Z-3.0000 S1
G1 F1000 X235.1840 Y14.4239 Z-3.0000 S1
G1 F1000 X235.1819 Y14.4224 Z-3.0000 S1
G1 F1000 X235.1798 Y14.4208 Z-3.0000 S1
G1 F1000 X235.1777 Y14.4193 Z-3.0000 S1
G1 F1000 X235.1757 Y14.4177 Z-3.0000 S1
G1 F1000 X235.1736 Y14.4160 Z-3.0000 S1
G1 F1000 X235.1716 Y14.4144 Z-3.0000 S1
G1 F1000 X235.1696 Y14.4127 Z-3.0000 S1
G1 F1000 X235.1677 Y14.4110 Z-3.0000 S1
G1 F1000 X235.1657 Y14.4092 Z-3.0000 S1
G1 F1000 X235.1638 Y14.4075 Z-3.0000 S1
G1 F1000 X235.1619 Y14.4057 Z-3.0000 S1
G1 F1000 X235.1600 Y14.4039 Z-3.0000 S1
G1 F1000 X235.1582 Y14.4020 Z-3.0000 S1
G1 F1000 X235.1563 Y14.4002 Z-3.0000 S1
G1 F1000 X235.1545 Y14.3983 Z-3.0000 S1
G1 F1000 X235.1528 Y14.3964 Z-3.0000 S1
G1 F1000 X235.1510 Y14.3944 Z-3.0000 S1
G1 F1000 X235.1493 Y14.3925 Z-3.0000 S1
G1 F1000 X235.1476 Y14.3905 Z-3.0000 S1
G1 F1000 X235.1459 Y14.3885 Z-3.0000 S1
G1 F1000 X235.1443 Y14.3865 Z-3.0000 S1
G1 F1000 X235.1426 Y14.3844 Z-3.0000 S1
G1 F1000 X235.1410 Y14.3824 Z-3.0000 S1
G1 F1000 X235.1395 Y14.3803 Z-3.0000 S1
G1 F1000 X235.1379 Y14.3782 Z-3.0000 S1
G1 F1000 X235.1364 Y14.3761 Z-3.0000 S1
G1 F1000 X235.1349 Y14.3739 Z-3.0000 S1
G1 F1000 X235.1335 Y14.3718 Z-3.0000 S1
G1 F1000 X235.1320 Y14.3696 Z-3.0000 S1
G1 F1000 X235.1306 Y14.3674 Z-3.0000 S1
G1 F1000 X235.1293 Y14.3652 Z-3.0000 S1
G1 F1000 X235.1279 Y14.3629 Z-3.0000 S1
G1 F1000 X235.1266 Y14.3607 Z-3.0000 S1
G1 F1000 X235.1253 Y14.3584 Z-3.0000 S1
G1 F1000 X235.1241 Y14.3561 Z-3.0000 S1
G1 F1000 X235.1228 Y14.3538 Z-3.0000 S1
G1 F1000 X235.1216 Y14.3515 Z-3.0000 S1
G1 F1000 X235.1205 Y14.3492 Z-3.0000 S1
G1 F1000 X235.1193 Y14.3468 Z-3.0000 S1
G1 F1000 X235.1182 Y14.3444 Z-3.0000 S1
G1 F1000 X235.1172 Y14.3421 Z-3.0000 S1
G1 F1000 X235.1161 Y14.3397 Z-3.0000 S1
G1 F1000 X235.1151 Y14.3373 Z-3.0000 S1
G1 F1000 X235.1141 Y14.3349 Z-3.0000 S1
G1 F1000 X235.1132 Y14.3324 Z-3.0000 S1
G1 F1000 X235.1123 Y14.3300 Z-3.0000 S1
G1 F1000 X235.1114 Y14.3275 Z-3.0000 S1
G1 F1000 X235.1105 Y14.3251 Z-3.0000 S1
G1 F1000 X235.1097 Y14.3226 Z-3.0000 S1
G1 F1000 X235.1089 Y14.3201 Z-3.0000 S1
G1 F1000 X235.1082 Y14.3176 Z-3.0000 S1
G1 F1000 X235.1075 Y14.3151 Z-3.0000 S1
G1 F1000 X235.1068 Y14.3126 Z-3.0000 S1
G1 F1000 X235.1061 Y14.3101 Z-3.0000 S1
G1 F1000 X235.1055 Y14.3075 Z-3.0000 S1
G1 F1000 X235.1049 Y14.3050 Z-3.0000 S1
G1 F1000 X235.1043 Y14.3024 Z-3.0000 S1
G1 F1000 X235.1038 Y14.2999 Z-3.0000 S1
G1 F1000 X235.1033 Y14.2973 Z-3.0000 S1
G1 F1000 X235.1029 Y14.2947 Z-3.0000 S1
G1 F1000 X235.1024 Y14.2922 Z-3.0000 S1
G1 F1000 X235.1021 Y14.2896 Z-3.0000 S1
G1 F1000 X235.1017 Y14.2870 Z-3.0000 S1
G1 F1000 X235.1014 Y14.2844 Z-3.0000 S1
G1 F1000 X235.1011 Y14.2818 Z-3.0000 S1
G1 F1000 X235.1008 Y14.2792 Z-3.0000 S1
G1 F1000 X235.1006 Y14.2766 Z-3.0000 S1
G1 F1000 X235.1004 Y14.2740 Z-3.0000 S1
G1 F1000 X235.1003 Y14.2714 Z-3.0000 S1
G1 F1000 X235.1002 Y14.2688 Z-3.0000 S1
G1 F1000 X235.1001 Y14.2662 Z-3.0000 S1
G1 F1000 X235.1000 Y14.2636 Z-3.0000 S1
G1 F1000 X235.1000 Y14.2610 Z-3.0000 S1
G1 F1000 X235.3000 Y14.2610 Z-3.0000 S1
G1 F300 Z-4.0000
G1 F1000 X235.3197 Y14.4600 Z-4.0000 S1
G1 F1000 X235.3171 Y14.4603 Z-4.0000 S1
G1 F1000 X235.3145 Y14.4605 Z-4.0000 S1
G1 F1000 X235.3119 Y14.4606 Z-4.0000 S1
G1 F1000 X235.3093 Y14.4608 Z-4.0000 S1
G1 F1000 X235.3067 Y14.4609 Z-4.0000 S1
G1 F1000 X235.3041 Y14.4610 Z-4.0000 S1
G1 F1000 X235.3015 Y14.4610 Z-4.0000 S1
G1 F1000 X235.2989 Y14.4610 Z-4.0000 S1
G1 F1000 X235.2962 Y14.4610 Z-4.0000 S1
G1 F1000 X235.2936 Y14.4609 Z-4.0000 S1
G1 F1000 X235.2910 Y14.4608 Z-4.0000 S1
G1 F1000 X235.2884 Y14.4607 Z-4.0000 S1
G1 F1000 X235.2858 Y14.4605 Z-4.0000 S1
G1 F1000 X235.2832 Y14.4603 Z-4.0000 S1
G1 F1000 X235.2806 Y14.4601 Z-4.0000 S1
G1 F1000 X235.2780 Y14.4598 Z-4.0000 S1
G1 F1000 X235.2754 Y14.4595 Z-4.0000 S1
G1 F1000 X235.2729 Y14.4591 Z-4.0000 S1
G1 F1000 X235.2703 Y14.4588 Z-4.0000 S1
G1 F1000 X235.2677 Y14.4584 Z-4.0000 S1
G1 F1000 X235.2651 Y14.4579 Z-4.0000 S1
G1 F1000 X235.2626 Y14.4575 Z-4.0000 S1
G1 F1000 X235.2600 Y14.4570 Z-4.0000 S1
G1 F1000 X235.2574 Y14.4564 Z-4.0000 S1
G1 F1000 X235.2549 Y14.4558 Z-4.0000 S1
G1 F1000 X235.2524 Y14.4552 Z-4.0000 S1
G1 F1000 X235.2498 Y14.4546 Z-4.0000 S1
G1 F1000 X235.2473 Y14.4539 Z-4.0000 S1
G1 F1000 X235.2448 Y14.4532 Z-4.0000 S1
G1 F1000 X235.2423 Y14.4525 Z-4.0000 S1
G1 F1000 X235.2398 Y14.4517 Z-4.0000 S1
G1 F1000 X235.2373 Y14.4509 Z-4.0000 S1
G1 F1000 X235.2349 Y14.4501 Z-4.0000 S1
G1 F1000 X235.2324 Y14.4492 Z-4.0000 S1
G1 F1000 X235.2299 Y14.4483 Z-4.0000 S1
G1 F1000 X235.2275 Y14.4474 Z-4.0000 S1
G1 F1000 X235.2251 Y14.4464 Z-4.0000 S1
G1 F1000 X235.2227 Y14.4454 Z-4.0000 S1
G1 F1000 X235.2203 Y14.4444 Z-4.0000 S1
G1 F1000 X235.2179 Y14.4434 Z-4.0000 S1
G1 F1000 X235.2155 Y14.4423 Z-4.0000 S1
G1 F1000 X235.2132 Y14.4412 Z-4.0000 S1
G1 F1000 X235.2108 Y14.4400 Z-4.0000 S1
G1 F1000 X235.2085 Y14.4388 Z-4.0000 S1
G1 F1000 X235.2062 Y14.4376 Z-4.0000 S1
G1 F1000 X235.2039 Y14.4364 Z-4.0000 S1
G1 F1000 X235.2016 Y14.4351 Z-4.0000 S1
G1 F1000 X235.1993 Y14.4338 Z-4.0000 S1
G1 F1000 X235.1971 Y14.4325 Z-4.0000 S1
G1 F1000 X235.1949 Y14.4311 Z-4.0000 S1
G1 F1000 X235.1927 Y14.4298 Z-4.0000 S1
G1 F1000 X235.1905 Y14.4283 Z-4.0000 S1
G1 F1000 X235.1883 Y14.4269 Z-4.0000 S1
G1 F1000 X235.1861 Y14.4254 Z-4.0000 S1
G1 F1000 X235.1840 Y14.4239 Z-4.0000 S1
G1 F1000 X235.1819 Y14.4224 Z-4.0000 S1
G1 F1000 X235.1798 Y14.4208 Z-4.0000 S1
G1 F1000 X235.1777 Y14.4193 Z-4.0000 S1
G1 F1000 X235.1757 Y14.4177 Z-4.0000 S1
G1 F1000 X235.1736 Y14.4160 Z-4.0000 S1
G1 F1000 X235.1716 Y14.4144 Z-4.0000 S1
G1 F1000 X235.1696 Y14.4127 Z-4.0000 S1
G1 F1000 X235.1677 Y14.4110 Z-4.0000 S1
G1 F1000 X235.1657 Y14.4092 Z-4.0000 S1
G1 F1000 X235.1638 Y14.4075 Z-4.0000 S1
G1 F1000 X235.1619 Y14.4057 Z-4.0000 S1
G1 F1000 X235.1600 Y14.4039 Z-4.0000 S1
G1 F1000 X235.1582 Y14.4020 Z-4.0000 S1
G1 F1000 X235.1563 Y14.4002 Z-4.0000 S1
G1 F1000 X235.1545 Y14.3983 Z-4.0000 S1
G1 F1000 X235.1528 Y14.3964 Z-4.0000 S1
G1 F1000 X235.1510 Y14.3944 Z-4.0000 S1
G1 F1000 X235.1493 Y14.3925 Z-4.0000 S1
G1 F1000 X235.1476 Y14.3905 Z-4.0000 S1
G1 F1000 X235.1459 Y14.3885 Z-4.0000 S1
G1 F1000 X235.1443 Y14.3865 Z-4.0000 S1
G1 F1000 X235.1426 Y14.3844 Z-4.0000 S1
G1 F1000 X235.1410 Y14.3824 Z-4.0000 S1
G1 F1000 X235.1395 Y14.3803 Z-4.0000 S1
G1 F1000 X235.1379 Y14.3782 Z-4.0000 S1
G1 F1000 X235.1364 Y14.3761 Z-4.0000 S1
G1 F1000 X235.1349 Y14.3739 Z-4.0000 S1
G1 F1000 X235.1335 Y14.3718 Z-4.0000 S1
G1 F1000 X235.1320 Y14.3696 Z-4.0000 S1
G1 F1000 X235.1306 Y14.3674 Z-4.0000 S1
G1 F1000 X235.1293 Y14.3652 Z-4.0000 S1
G1 F1000 X235.1279 Y14.3629 Z-4.0000 S1
G1 F1000 X235.1266 Y14.3607 Z-4.0000 S1
G1 F1000 X235.1253 Y14.3584 Z-4.0000 S1
G1 F1000 X235.1241 Y14.3561 Z-4.0000 S1
G1 F1000 X235.1228 Y14.3538 Z-4.0000 S1
G1 F1000 X235.1216 Y14.3515 Z-4.0000 S1
G1 F1000 X235.1205 Y14.3492 Z-4.0000 S1
G1 F1000 X235.1193 Y14.3468 Z-4.0000 S1
G1 F1000 X235.1182 Y14.3444 Z-4.0000 S1
G1 F1000 X235.1172 Y14.3421 Z-4.0000 S1
G1 F1000 X235.1161 Y14.3397 Z-4.0000 S1
G1 F1000 X235.1151 Y14.3373 Z-4.0000 S1
G1 F1000 X235.1141 Y14.3349 Z-4.0000 S1
G1 F1000 X235.1132 Y14.3324 Z-4.0000 S1
G1 F1000 X235.1123 Y14.3300 Z-4.0000 S1
G1 F1000 X235.1114 Y14.3275 Z-4.0000 S1
G1 F1000 X235.1105 Y14.3251 Z-4.0000 S1
G1 F1000 X235.1097 Y14.3226 Z-4.0000 S1
G1 F1000 X235.1089 Y14.3201 Z-4.0000 S1
G1 F1000 X235.1082 Y14.3176 Z-4.0000 S1
G1 F1000 X235.1075 Y14.3151 Z-4.0000 S1
G1 F1000 X235.1068 Y14.3126 Z-4.0000 S1
G1 F1000 X235.1061 Y14.3101 Z-4.0000 S1
G1 F1000 X235.1055 Y14.3075 Z-4.0000 S1
G1 F1000 X235.1049 Y14.3050 Z-4.0000 S1
G1 F1000 X235.1043 Y14.3024 Z-4.0000 S1
G1 F1000 X235.1038 Y14.2999 Z-4.0000 S1
G1 F1000 X235.1033 Y14.2973 Z-4.0000 S1
G1 F1000 X235.1029 Y14.2947 Z-4.0000 S1
G1 F1000 X235.1024 Y14.2922 Z-4.0000 S1
G1 F1000 X235.1021 Y14.2896 Z-4.0000 S1
G1 F1000 X235.1017 Y14.2870 Z-4.0000 S1
G1 F1000 X235.1014 Y14.2844 Z-4.0000 S1
G1 F1000 X235.1011 Y14.2818 Z-4.0000 S1
G1 F1000 X235.1008 Y14.2792 Z-4.0000 S1
G1 F1000 X235.1006 Y14.2766 Z-4.0000 S1
G1 F1000 X235.1004 Y14.2740 Z-4.0000 S1
G1 F1000 X235.1003 Y14.2714 Z-4.0000 S1
G1 F1000 X235.1002 Y14.2688 Z-4.0000 S1
G1 F1000 X235.1001 Y14.2662 Z-4.0000 S1
G1 F1000 X235.1000 Y14.2636 Z-4.0000 S1
G1 F1000 X235.1000 Y14.2610 Z-4.0000 S1
G1 F1000 X235.3000 Y14.2610 Z-4.0000 S1
G1 F300 Z-5.0000
G1 F1000 X235.3197 Y14.4600 Z-5.0000 S1
G1 F1000 X235.3171 Y14.4603 Z-5.0000 S1
G1 F1000 X235.3145 Y14.4605 Z-5.0000 S1
G1 F1000 X235.3119 Y14.4606 Z-5.0000 S1
G1 F1000 X235.3093 Y14.4608 Z-5.0000 S1
G1 F1000 X235.3067 Y14.4609 Z-5.0000 S1
G1 F1000 X235.3041 Y14.4610 Z-5.0000 S1
G1 F1000 X235.3015 Y14.4610 Z-5.0000 S1
G1 F1000 X235.2989 Y14.4610 Z-5.0000 S1
G1 F1000 X235.2962 Y14.4610 Z-5.0000 S1
G1 F1000 X235.2936 Y14.4609 Z-5.0000 S1
G1 F1000 X235.2910 Y14.4608 Z-5.0000 S1
G1 F1000 X235.2884 Y14.4607 Z-5.0000 S1
G1 F1000 X235.2858 Y14.4605 Z-5.0000 S1
G1 F1000 X235.2832 Y14.4603 Z-5.0000 S1
G1 F1000 X235.2806 Y14.4601 Z-5.0000 S1
G1 F1000 X235.2780 Y14.4598 Z-5.0000 S1
G1 F1000 X235.2754 Y14.4595 Z-5.0000 S1
G1 F1000 X235.2729 Y14.4591 Z-5.0000 S1
G1 F1000 X235.2703 Y14.4588 Z-5.0000 S1
G1 F1000 X235.2677 Y14.4584 Z-5.0000 S1
G1 F1000 X235.2651 Y14.4579 Z-5.0000 S1
G1 F1000 X235.2626 Y14.4575 Z-5.0000 S1
G1 F1000 X235.2600 Y14.4570 Z-5.0000 S1
G1 F1000 X235.2574 Y14.4564 Z-5.0000 S1
G1 F1000 X235.2549 Y14.4558 Z-5.0000 S1
G1 F1000 X235.2524 Y14.4552 Z-5.0000 S1
G1 F1000 X235.2498 Y14.4546 Z-5.0000 S1
G1 F1000 X235.2473 Y14.4539 Z-5.0000 S1
G1 F1000 X235.2448 Y14.4532 Z-5.0000 S1
G1 F1000 X235.2423 Y14.4525 Z-5.0000 S1
G1 F1000 X235.2398 Y14.4517 Z-5.0000 S1
G1 F1000 X235.2373 Y14.4509 Z-5.0000 S1
G1 F1000 X235.2349 Y14.4501 Z-5.0000 S1
G1 F1000 X235.2324 Y14.4492 Z-5.0000 S1
G1 F1000 X235.2299 Y14.4483 Z-5.0000 S1
G1 F1000 X235.2275 Y14.4474 Z-5.0000 S1
G1 F1000 X235.2251 Y14.4464 Z-5.0000 S1
G1 F1000 X235.2227 Y14.4454 Z-5.0000 S1
G1 F1000 X235.2203 Y14.4444 Z-5.0000 S1
G1 F1000 X235.2179 Y14.4434 Z-5.0000 S1
G1 F1000 X235.2155 Y14.4423 Z-5.0000 S1
G1 F1000 X235.2132 Y14.4412 Z-5.0000 S1
G1 F1000 X235.2108 Y14.4400 Z-5.0000 S1
G1 F1000 X235.2085 Y14.4388 Z-5.0000 S1
G1 F1000 X235.2062 Y14.4376 Z-5.0000 S1
G1 F1000 X235.2039 Y14.4364 Z-5.0000 S1
G1 F1000 X235.2016 Y14.4351 Z-5.0000 S1
G1 F1000 X235.1993 Y14.4338 Z-5.0000 S1
G1 F1000 X235.1971 Y14.4325 Z-5.0000 S1
G1 F1000 X235.1949 Y14.4311 Z-5.0000 S1
G1 F1000 X235.1927 Y14.4298 Z-5.0000 S1
G1 F1000 X235.1905 Y14.4283 Z-5.0000 S1
G1 F1000 X235.1883 Y14.4269 Z-5.0000 S1
G1 F1000 X235.1861 Y14.4254 Z-5.0000 S1
G1 F1000 X235.1840 Y14.4239 Z-5.0000 S1
G1 F1000 X235.1819 Y14.4224 Z-5.0000 S1
G1 F1000 X235.1798 Y14.4208 Z-5.0000 S1
G1 F1000 X235.1777 Y14.4193 Z-5.0000 S1
G1 F1000 X235.1757 Y14.4177 Z-5.0000 S1
G1 F1000 X235.1736 Y14.4160 Z-5.0000 S1
G1 F1000 X235.1716 Y14.4144 Z-5.0000 S1
G1 F1000 X235.1696 Y14.4127 Z-5.0000 S1
G1 F1000 X235.1677 Y14.4110 Z-5.0000 S1
G1 F1000 X235.1657 Y14.4092 Z-5.0000 S1
G1 F1000 X235.1638 Y14.4075 Z-5.0000 S1
G1 F1000 X235.1619 Y14.4057 Z-5.0000 S1
G1 F1000 X235.1600 Y14.4039 Z-5.0000 S1
G1 F1000 X235.1582 Y14.4020 Z-5.0000 S1
G1 F1000 X235.1563 Y14.4002 Z-5.0000 S1
G1 F1000 X235.1545 Y14.3983 Z-5.0000 S1
G1 F1000 X235.1528 Y14.3964 Z-5.0000 S1
G1 F1000 X235.1510 Y14.3944 Z-5.0000 S1
G1 F1000 X235.1493 Y14.3925 Z-5.0000 S1
G1 F1000 X235.1476 Y14.3905 Z-5.0000 S1
G1 F1000 X235.1459 Y14.3885 Z-5.0000 S1
G1 F1000 X235.1443 Y14.3865 Z-5.0000 S1
G1 F1000 X235.1426 Y14.3844 Z-5.0000 S1
G1 F1000 X235.1410 Y14.3824 Z-5.0000 S1
G1 F1000 X235.1395 Y14.3803 Z-5.0000 S1
G1 F1000 X235.1379 Y14.3782 Z-5.0000 S1
G1 F1000 X235.1364 Y14.3761 Z-5.0000 S1
G1 F1000 X235.1349 Y14.3739 Z-5.0000 S1
G1 F1000 X235.1335 Y14.3718 Z-5.0000 S1
G1 F1000 X235.1320 Y14.3696 Z-5.0000 S1
G1 F1000 X235.1306 Y14.3674 Z-5.0000 S1
G1 F1000 X235.1293 Y14.3652 Z-5.0000 S1
G1 F1000 X235.1279 Y14.3629 Z-5.0000 S1
G1 F1000 X235.1266 Y14.3607 Z-5.0000 S1
G1 F1000 X235.1253 Y14.3584 Z-5.0000 S1
G1 F1000 X235.1241 Y14.3561 Z-5.0000 S1
G1 F1000 X235.1228 Y14.3538 Z-5.0000 S1
G1 F1000 X235.1216 Y14.3515 Z-5.0000 S1
G1 F1000 X235.1205 Y14.3492 Z-5.0000 S1
G1 F1000 X235.1193 Y14.3468 Z-5.0000 S1
G1 F1000 X235.1182 Y14.3444 Z-5.0000 S1
G1 F1000 X235.1172 Y14.3421 Z-5.0000 S1
G1 F1000 X235.1161 Y14.3397 Z-5.0000 S1
G1 F1000 X235.1151 Y14.3373 Z-5.0000 S1
G1 F1000 X235.1141 Y14.3349 Z-5.0000 S1
G1 F1000 X235.1132 Y14.3324 Z-5.0000 S1
G1 F1000 X235.1123 Y14.3300 Z-5.0000 S1
G1 F1000 X235.1114 Y14.3275 Z-5.0000 S1
G1 F1000 X235.1105 Y14.3251 Z-5.0000 S1
G1 F1000 X235.1097 Y14.3226 Z-5.0000 S1
G1 F1000 X235.1089 Y14.3201 Z-5.0000 S1
G1 F1000 X235.1082 Y14.3176 Z-5.0000 S1
G1 F1000 X235.1075 Y14.3151 Z-5.0000 S1
G1 F1000 X235.1068 Y14.3126 Z-5.0000 S1
G1 F1000 X235.1061 Y14.3101 Z-5.0000 S1
G1 F1000 X235.1055 Y14.3075 Z-5.0000 S1
G1 F1000 X235.1049 Y14.3050 Z-5.0000 S1
G1 F1000 X235.1043 Y14.3024 Z-5.0000 S1
G1 F1000 X235.1038 Y14.2999 Z-5.0000 S1
G1 F1000 X235.1033 Y14.2973 Z-5.0000 S1
G1 F1000 X235.1029 Y14.2947 Z-5.0000 S1
G1 F1000 X235.1024 Y14.2922 Z-5.0000 S1
G1 F1000 X235.1021 Y14.2896 Z-5.0000 S1
G1 F1000 X235.1017 Y14.2870 Z-5.0000 S1
G1 F1000 X235.1014 Y14.2844 Z-5.0000 S1
G1 F1000 X235.1011 Y14.2818 Z-5.0000 S1
G1 F1000 X235.1008 Y14.2792 Z-5.0000 S1
G1 F1000 X235.1006 Y14.2766 Z-5.0000 S1
G1 F1000 X235.1004 Y14.2740 Z-5.0000 S1
G1 F1000 X235.1003 Y14.2714 Z-5.0000 S1
G1 F1000 X235.1002 Y14.2688 Z-5.0000 S1
G1 F1000 X235.1001 Y14.2662 Z-5.0000 S1
G1 F1000 X235.1000 Y14.2636 Z-5.0000 S1
G1 F1000 X235.1000 Y14.2610 Z-5.0000 S1
G1 F1000 X235.3000 Y14.2610 Z-5.0000 S1
G1 F300 Z-6.0000
G1 F1000 X235.3197 Y14.4600 Z-6.0000 S1
G1 F1000 X235.3171 Y14.4603 Z-6.0000 S1
G1 F1000 X235.3145 Y14.4605 Z-6.0000 S1
G1 F1000 X235.3119 Y14.4606 Z-6.0000 S1
G1 F1000 X235.3093 Y14.4608 Z-6.0000 S1
G1 F1000 X235.3067 Y14.4609 Z-6.0000 S1
G1 F1000 X235.3041 Y14.4610 Z-6.0000 S1
G1 F1000 X235.3015 Y14.4610 Z-6.0000 S1
G1 F1000 X235.2989 Y14.4610 Z-6.0000 S1
G1 F1000 X235.2962 Y14.4610 Z-6.0000 S1
G1 F1000 X235.2936 Y14.4609 Z-6.0000 S1
G1 F1000 X235.2910 Y14.4608 Z-6.0000 S1
G1 F1000 X235.2884 Y14.4607 Z-6.0000 S1
G1 F1000 X235.2858 Y14.4605 Z-6.0000 S1
G1 F1000 X235.2832 Y14.4603 Z-6.0000 S1
G1 F1000 X235.2806 Y14.4601 Z-6.0000 S1
G1 F1000 X235.2780 Y14.4598 Z-6.0000 S1
G1 F1000 X235.2754 Y14.4595 Z-6.0000 S1
G1 F1000 X235.2729 Y14.4591 Z-6.0000 S1
G1 F1000 X235.2703 Y14.4588 Z-6.0000 S1
G1 F1000 X235.2677 Y14.4584 Z-6.0000 S1
G1 F1000 X235.2651 Y14.4579 Z-6.0000 S1
G1 F1000 X235.2626 Y14.4575 Z-6.0000 S1
G1 F1000 X235.2600 Y14.4570 Z-6.0000 S1
G1 F1000 X235.2574 Y14.4564 Z-6.0000 S1
G1 F1000 X235.2549 Y14.4558 Z-6.0000 S1
G1 F1000 X235.2524 Y14.4552 Z-6.0000 S1
G1 F1000 X235.2498 Y14.4546 Z-6.0000 S1
G1 F1000 X235.2473 Y14.4539 Z-6.0000 S1
G1 F1000 X235.2448 Y14.4532 Z-6.0000 S1
G1 F1000 X235.2423 Y14.4525 Z-6.0000 S1
G1 F1000 X235.2398 Y14.4517 Z-6.0000 S1
G1 F1000 X235.2373 Y14.4509 Z-6.0000 S1
G1 F1000 X235.2349 Y14.4501 Z-6.0000 S1
G1 F1000 X235.2324 Y14.4492 Z-6.0000 S1
G1 F1000 X235.2299 Y14.4483 Z-6.0000 S1
G1 F1000 X235.2275 Y14.4474 Z-6.0000 S1
G1 F1000 X235.2251 Y14.4464 Z-6.0000 S1
G1 F1000 X235.2227 Y14.4454 Z-6.0000 S1
G1 F1000 X235.2203 Y14.4444 Z-6.0000 S1
G1 F1000 X235.2179 Y14.4434 Z-6.0000 S1
G1 F1000 X235.2155 Y14.4423 Z-6.0000 S1
G1 F1000 X235.2132 Y14.4412 Z-6.0000 S1
G1 F1000 X235.2108 Y14.4400 Z-6.0000 S1
G1 F1000 X235.2085 Y14.4388 Z-6.0000 S1
G1 F1000 X235.2062 Y14.4376 Z-6.0000 S1
G1 F1000 X235.2039 Y14.4364 Z-6.0000 S1
G1 F1000 X235.2016 Y14.4351 Z-6.0000 S1
G1 F1000 X235.1993 Y14.4338 Z-6.0000 S1
G1 F1000 X235.1971 Y14.4325 Z-6.0000 S1
G1 F1000 X235.1949 Y14.4311 Z-6.0000 S1
G1 F1000 X235.1927 Y14.4298 Z-6.0000 S1
G1 F1000 X235.1905 Y14.4283 Z-6.0000 S1
G1 F1000 X235.1883 Y14.4269 Z-6.0000 S1
G1 F1000 X235.1861 Y14.4254 Z-6.0000 S1
G1 F1000 X235.1840 Y14.4239 Z-6.0000 S1
G1 F1000 X235.1819 Y14.4224 Z-6.0000 S1
G1 F1000 X235.1798 Y14.4208 Z-6.0000 S1
G1 F1000 X235.1777 Y14.4193 Z-6.0000 S1
G1 F1000 X235.1757 Y14.4177 Z-6.0000 S1
G1 F1000 X235.1736 Y14.4160 Z-6.0000 S1
G1 F1000 X235.1716 Y14.4144 Z-6.0000 S1
G1 F1000 X235.1696 Y14.4127 Z-6.0000 S1
G1 F1000 X235.1677 Y14.4110 Z-6.0000 S1
G1 F1000 X235.1657 Y14.4092 Z-6.0000 S1
G1 F1000 X235.1638 Y14.4075 Z-6.0000 S1
G1 F1000 X235.1619 Y14.4057 Z-6.0000 S1
G1 F1000 X235.1600 Y14.4039 Z-6.0000 S1
G1 F1000 X235.1582 Y14.4020 Z-6.0000 S1
G1 F1000 X235.1563 Y14.4002 Z-6.0000 S1
G1 F1000 X235.1545 Y14.3983 Z-6.0000 S1
G1 F1000 X235.1528 Y14.3964 Z-6.0000 S1
G1 F1000 X235.1510 Y14.3944 Z-6.0000 S1
G1 F1000 X235.1493 Y14.3925 Z-6.0000 S1
G1 F1000 X235.1476 Y14.3905 Z-6.0000 S1
G1 F1000 X235.1459 Y14.3885 Z-6.0000 S1
G1 F1000 X235.1443 Y14.3865 Z-6.0000 S1
G1 F1000 X235.1426 Y14.3844 Z-6.0000 S1
G1 F1000 X235.1410 Y14.3824 Z-6.0000 S1
G1 F1000 X235.1395 Y14.3803 Z-6.0000 S1
G1 F1000 X235.1379 Y14.3782 Z-6.0000 S1
G1 F1000 X235.1364 Y14.3761 Z-6.0000 S1
G1 F1000 X235.1349 Y14.3739 Z-6.0000 S1
G1 F1000 X235.1335 Y14.3718 Z-6.0000 S1
G1 F1000 X235.1320 Y14.3696 Z-6.0000 S1
G1 F1000 X235.1306 Y14.3674 Z-6.0000 S1
G1 F1000 X235.1293 Y14.3652 Z-6.0000 S1
G1 F1000 X235.1279 Y14.3629 Z-6.0000 S1
G1 F1000 X235.1266 Y14.3607 Z-6.0000 S1
G1 F1000 X235.1253 Y14.3584 Z-6.0000 S1
G1 F1000 X235.1241 Y14.3561 Z-6.0000 S1
G1 F1000 X235.1228 Y14.3538 Z-6.0000 S1
G1 F1000 X235.1216 Y14.3515 Z-6.0000 S1
G1 F1000 X235.1205 Y14.3492 Z-6.0000 S1
G1 F1000 X235.1193 Y14.3468 Z-6.0000 S1
G1 F1000 X235.1182 Y14.3444 Z-6.0000 S1
G1 F1000 X235.1172 Y14.3421 Z-6.0000 S1
G1 F1000 X235.1161 Y14.3397 Z-6.0000 S1
G1 F1000 X235.1151 Y14.3373 Z-6.0000 S1
G1 F1000 X235.1141 Y14.3349 Z-6.0000 S1
G1 F1000 X235.1132 Y14.3324 Z-6.0000 S1
G1 F1000 X235.1123 Y14.3300 Z-6.0000 S1
G1 F1000 X235.1114 Y14.3275 Z-6.0000 S1
G1 F1000 X235.1105 Y14.3251 Z-6.0000 S1
G1 F1000 X235.1097 Y14.3226 Z-6.0000 S1
G1 F1000 X235.1089 Y14.3201 Z-6.0000 S1
G1 F1000 X235.1082 Y14.3176 Z-6.0000 S1
G1 F1000 X235.1075 Y14.3151 Z-6.0000 S1
G1 F1000 X235.1068 Y14.3126 Z-6.0000 S1
G1 F1000 X235.1061 Y14.3101 Z-6.0000 S1
G1 F1000 X235.1055 Y14.3075 Z-6.0000 S1
G1 F1000 X235.1049 Y14.3050 Z-6.0000 S1
G1 F1000 X235.1043 Y14.3024 Z-6.0000 S1
G1 F1000 X235.1038 Y14.2999 Z-6.0000 S1
G1 F1000 X235.1033 Y14.2973 Z-6.0000 S1
G1 F1000 X235.1029 Y14.2947 Z-6.0000 S1
G1 F1000 X235.1024 Y14.2922 Z-6.0000 S1
G1 F1000 X235.1021 Y14.2896 Z-6.0000 S1
G1 F1000 X235.1017 Y14.2870 Z-6.0000 S1
G1 F1000 X235.1014 Y14.2844 Z-6.0000 S1
G1 F1000 X235.1011 Y14.2818 Z-6.0000 S1
G1 F1000 X235.1008 Y14.2792 Z-6.0000 S1
G1 F1000 X235.1006 Y14.2766 Z-6.0000 S1
G1 F1000 X235.1004 Y14.2740 Z-6.0000 S1
G1 F1000 X235.1003 Y14.2714 Z-6.0000 S1
G1 F1000 X235.1002 Y14.2688 Z-6.0000 S1
G1 F1000 X235.1001 Y14.2662 Z-6.0000 S1
G1 F1000 X235.1000 Y14.2636 Z-6.0000 S1
G1 F1000 X235.1000 Y14.2610 Z-6.0000 S1
G1 F1000 X235.3000 Y14.2610 Z-6.0000 S1

G0 Z10; move to z-safe height
G0 X239.8000 Y14.2610

G0 Z0
G1 F300 Z-1.0000
G1 F1000 X240.0000 Y14.2610 Z-1.0000 S1
G1 F1000 X240.0000 Y14.2636 Z-1.0000 S1
G1 F1000 X239.9999 Y14.2662 Z-1.0000 S1
G1 F1000 X239.9998 Y14.2688 Z-1.0000 S1
G1 F1000 X239.9997 Y14.2714 Z-1.0000 S1
G1 F1000 X239.9996 Y14.2740 Z-1.0000 S1
G1 F1000 X239.9994 Y14.2766 Z-1.0000 S1
G1 F1000 X239.9992 Y14.2792 Z-1.0000 S1
G1 F1000 X239.9989 Y14.2818 Z-1.0000 S1
G1 F1000 X239.9986 Y14.2844 Z-1.0000 S1
G1 F1000 X239.9983 Y14.2870 Z-1.0000 S1
G1 F1000 X239.9979 Y14.2896 Z-1.0000 S1
G1 F1000 X239.9976 Y14.2922 Z-1.0000 S1
G1 F1000 X239.9971 Y14.2947 Z-1.0000 S1
G1 F1000 X239.9967 Y14.2973 Z-1.0000 S1
G1 F1000 X239.9962 Y14.2999 Z-1.0000 S1
G1 F1000 X239.9957 Y14.3024 Z-1.0000 S1
G1 F1000 X239.9951 Y14.3050 Z-1.0000 S1
G1 F1000 X239.9945 Y14.3075 Z-1.0000 S1
G1 F1000 X239.9939 Y14.3101 Z-1.0000 S1
G1 F1000 X239.9932 Y14.3126 Z-1.0000 S1
G1 F1000 X239.9925 Y14.3151 Z-1.0000 S1
G1 F1000 X239.9918 Y14.3176 Z-1.0000 S1
G1 F1000 X239.9911 Y14.3201 Z-1.0000 S1
G1 F1000 X239.9903 Y14.3226 Z-1.0000 S1
G1 F1000 X239.9895 Y14.3251 Z-1.0000 S1
G1 F1000 X239.9886 Y14.3275 Z-1.0000 S1
G1 F1000 X239.9877 Y14.3300 Z-1.0000 S1
G1 F1000 X239.9868 Y14.3324 Z-1.0000 S1
G1 F1000 X239.9859 Y14.3349 Z-1.0000 S1
G1 F1000 X239.9849 Y14.3373 Z-1.0000 S1
G1 F1000 X239.9839 Y14.3397 Z-1.0000 S1
G1 F1000 X239.9828 Y14.3421 Z-1.0000 S1
G1 F1000 X239.9818 Y14.3444 Z-1.0000 S1
G1 F1000 X239.9807 Y14.3468 Z-1.0000 S1
G1 F1000 X239.9795 Y14.3492 Z-1.0000 S1
G1 F1000 X239.9784 Y14.3515 Z-1.0000 S1
G1 F1000 X239.9772 Y14.3538 Z-1.0000 S1
G1 F1000 X239.9759 Y14.3561 Z-1.0000 S1
G1 F1000 X239.9747 Y14.3584 Z-1.0000 S1
G1 F1000 X239.9734 Y14.3607 Z-1.0000 S1
G1 F1000 X239.9721 Y14.3629 Z-1.0000 S1
G1 F1000 X239.9707 Y14.3652 Z-1.0000 S1
G1 F1000 X239.9694 Y14.3674 Z-1.0000 S1
G1 F1000 X239.9680 Y14.3696 Z-1.0000 S1
G1 F1000 X239.9665 Y14.3718 Z-1.0000 S1
G1 F1000 X239.9651 Y14.3739 Z-1.0000 S1
G1 F1000 X239.9636 Y14.3761 Z-1.0000 S1
G1 F1000 X239.9621 Y14.3782 Z-1.0000 S1
G1 F1000 X239.9605 Y14.3803 Z-1.0000 S1
G1 F1000 X239.9590 Y14.3824 Z-1.0000 S1
G1 F1000 X239.9574 Y14.3844 Z-1.0000 S1
G1 F1000 X239.9557 Y14.3865 Z-1.0000 S1
G1 F1000 X239.9541 Y14.3885 Z-1.0000 S1
G1 F1000 X239.9524 Y14.3905 Z-1.0000 S1
G1 F1000 X239.9507 Y14.3925 Z-1.0000 S1
G1 F1000 X239.9490 Y14.3944 Z-1.0000 S1
G1 F1000 X239.9472 Y14.3964 Z-1.0000 S1
G1 F1000 X239.9455 Y14.3983 Z-1.0000 S1
G1 F1000 X239.9437 Y14.4002 Z-1.0000 S1
G1 F1000 X239.9418 Y14.4020 Z-1.0000 S1
G1 F1000 X239.9400 Y14.4039 Z-1.0000 S1
G1 F1000 X239.9381 Y14.4057 Z-1.0000 S1
G1 F1000 X239.9362 Y14.4075 Z-1.0000 S1
G1 F1000 X239.9343 Y14.4092 Z-1.0000 S1
G1 F1000 X239.9323 Y14.4110 Z-1.0000 S1
G1 F1000 X239.9304 Y14.4127 Z-1.0000 S1
G1 F1000 X239.9284 Y14.4144 Z-1.0000 S1
G1 F1000 X239.9264 Y14.4160 Z-1.0000 S1
G1 F1000 X239.9243 Y14.4177 Z-1.0000 S1
G1 F1000 X239.9223 Y14.4193 Z-1.0000 S1
G1 F1000 X239.9202 Y14.4208 Z-1.0000 S1
G1 F1000 X239.9181 Y14.4224 Z-1.0000 S1
G1 F1000 X239.9160 Y14.4239 Z-1.0000 S1
G1 F1000 X239.9139 Y14.4254 Z-1.0000 S1
G1 F1000 X239.9117 Y14.4269 Z-1.0000 S1
G1 F1000 X239.9095 Y14.4283 Z-1.0000 S1
G1 F1000 X239.9073 Y14.4298 Z-1.0000 S1
G1 F1000 X239.9051 Y14.4311 Z-1.0000 S1
G1 F1000 X239.9029 Y14.4325 Z-1.0000 S1
G1 F1000 X239.9007 Y14.4338 Z-1.0000 S1
G1 F1000 X239.8984 Y14.4351 Z-1.0000 S1
G1 F1000 X239.8961 Y14.4364 Z-1.0000 S1
G1 F1000 X239.8938 Y14.4376 Z-1.0000 S1
G1 F1000 X239.8915 Y14.4388 Z-1.0000 S1
G1 F1000 X239.8892 Y14.4400 Z-1.0000 S1
G1 F1000 X239.8868 Y14.4412 Z-1.0000 S1
G1 F1000 X239.8845 Y14.4423 Z-1.0000 S1
G1 F1000 X239.8821 Y14.4434 Z-1.0000 S1
G1 F1000 X239.8797 Y14.4444 Z-1.0000 S1
G1 F1000 X239.8773 Y14.4454 Z-1.0000 S1
G1 F1000 X239.8749 Y14.4464 Z-1.0000 S1
G1 F1000 X239.8725 Y14.4474 Z-1.0000 S1
G1 F1000 X239.8701 Y14.4483 Z-1.0000 S1
G1 F1000 X239.8676 Y14.4492 Z-1.0000 S1
G1 F1000 X239.8651 Y14.4501 Z-1.0000 S1
G1 F1000 X239.8627 Y14.4509 Z-1.0000 S1
G1 F1000 X239.8602 Y14.4517 Z-1.0000 S1
G1 F1000 X239.8577 Y14.4525 Z-1.0000 S1
G1 F1000 X239.8552 Y14.4532 Z-1.0000 S1
G1 F1000 X239.8527 Y14.4539 Z-1.0000 S1
G1 F1000 X239.8502 Y14.4546 Z-1.0000 S1
G1 F1000 X239.8476 Y14.4552 Z-1.0000 S1
G1 F1000 X239.8451 Y14.4558 Z-1.0000 S1
G1 F1000 X239.8426 Y14.4564 Z-1.0000 S1
G1 F1000 X239.8400 Y14.4570 Z-1.0000 S1
G1 F1000 X239.8374 Y14.4575 Z-1.0000 S1
G1 F1000 X239.8349 Y14.4579 Z-1.0000 S1
G1 F1000 X239.8323 Y14.4584 Z-1.0000 S1
G1 F1000 X239.8297 Y14.4588 Z-1.0000 S1
G1 F1000 X239.8271 Y14.4591 Z-1.0000 S1
G1 F1000 X239.8246 Y14.4595 Z-1.0000 S1
G1 F1000 X239.8220 Y14.4598 Z-1.0000 S1
G1 F1000 X239.8194 Y14.4601 Z-1.0000 S1
G1 F1000 X239.8168 Y14.4603 Z-1.0000 S1
G1 F1000 X239.8142 Y14.4605 Z-1.0000 S1
G1 F1000 X239.8116 Y14.4607 Z-1.0000 S1
G1 F1000 X239.8090 Y14.4608 Z-1.0000 S1
G1 F1000 X239.8064 Y14.4609 Z-1.0000 S1
G1 F1000 X239.8038 Y14.4610 Z-1.0000 S1
G1 F1000 X239.8011 Y14.4610 Z-1.0000 S1
G1 F1000 X239.7985 Y14.4610 Z-1.0000 S1
G1 F1000 X239.7959 Y14.4610 Z-1.0000 S1
G1 F1000 X239.7933 Y14.4609 Z-1.0000 S1
G1 F1000 X239.7907 Y14.4608 Z-1.0000 S1
G1 F1000 X239.7881 Y14.4606 Z-1.0000 S1
G1 F1000 X239.7855 Y14.4605 Z-1.0000 S1
G1 F1000 X239.7829 Y14.4603 Z-1.0000 S1
G1 F1000 X239.7803 Y14.4600 Z-1.0000 S1
G1 F1000 X239.8000 Y14.2610 Z-1.0000 S1
G1 F300 Z-2.0000
G1 F1000 X240.0000 Y14.2610 Z-2.0000 S1
G1 F1000 X240.0000 Y14.2636 Z-2.0000 S1
G1 F1000 X239.9999 Y14.2662 Z-2.0000 S1
G1 F1000 X239.9998 Y14.2688 Z-2.0000 S1
G1 F1000 X239.9997 Y14.2714 Z-2.0000 S1
G1 F1000 X239.9996 Y14.2740 Z-2.0000 S1
G1 F1000 X239.9994 Y14.2766 Z-2.0000 S1
G1 F1000 X239.9992 Y14.2792 Z-2.0000 S1
G1 F1000 X239.9989 Y14.2818 Z-2.0000 S1
G1 F1000 X239.9986 Y14.2844 Z-2.0000 S1
G1 F1000 X239.9983 Y14.2870 Z-2.0000 S1
G1 F1000 X239.9979 Y14.2896 Z-2.0000 S1
G1 F1000 X239.9976 Y14.2922 Z-2.0000 S1
G1 F1000 X239.9971 Y14.2947 Z-2.0000 S1
G1 F1000 X239.9967 Y14.2973 Z-2.0000 S1
G1 F1000 X239.9962 Y14.2999 Z-2.0000 S1
G1 F1000 X239.9957 Y14.3024 Z-2.0000 S1
G1 F1000 X239.9951 Y14.3050 Z-2.0000 S1
G1 F1000 X239.9945 Y14.3075 Z-2.0000 S1
G1 F1000 X239.9939 Y14.3101 Z-2.0000 S1
G1 F1000 X239.9932 Y14.3126 Z-2.0000 S1
G1 F1000 X239.9925 Y14.3151 Z-2.0000 S1
G1 F1000 X239.9918 Y14.3176 Z-2.0000 S1
G1 F1000 X239.9911 Y14.3201 Z-2.0000 S1
G1 F1000 X239.9903 Y14.3226 Z-2.0000 S1
G1 F1000 X239.9895 Y14.3251 Z-2.0000 S1
G1 F1000 X239.9886 Y14.3275 Z-2.0000 S1
G1 F1000 X239.9877 Y14.3300 Z-2.0000 S1
G1 F1000 X239.9868 Y14.3324 Z-2.0000 S1
G1 F1000 X239.9859 Y14.3349 Z-2.0000 S1
G1 F1000 X239.9849 Y14.3373 Z-2.0000 S1
G1 F1000 X239.9839 Y14.3397 Z-2.0000 S1
G1 F1000 X239.9828 Y14.3421 Z-2.0000 S1
G1 F1000 X239.9818 Y14.3444 Z-2.0000 S1
G1 F1000 X239.9807 Y14.3468 Z-2.0000 S1
G1 F1000 X239.9795 Y14.3492 Z-2.0000 S1
G1 F1000 X239.9784 Y14.3515 Z-2.0000 S1
G1 F1000 X239.9772 Y14.3538 Z-2.0000 S1
G1 F1000 X239.9759 Y14.3561 Z-2.0000 S1
G1 F1000 X239.9747 Y14.3584 Z-2.0000 S1
G1 F1000 X239.9734 Y14.3607 Z-2.0000 S1
G1 F1000 X239.9721 Y14.3629 Z-2.0000 S1
G1 F1000 X239.9707 Y14.3652 Z-2.0000 S1
G1 F1000 X239.9694 Y14.3674 Z-2.0000 S1
G1 F1000 X239.9680 Y14.3696 Z-2.0000 S1
G1 F1000 X239.9665 Y14.3718 Z-2.0000 S1
G1 F1000 X239.9651 Y14.3739 Z-2.0000 S1
G1 F1000 X239.9636 Y14.3761 Z-2.0000 S1
G1 F1000 X239.9621 Y14.3782 Z-2.0000 S1
G1 F1000 X239.9605 Y14.3803 Z-2.0000 S1
G1 F1000 X239.9590 Y14.3824 Z-2.0000 S1
G1 F1000 X239.9574 Y14.3844 Z-2.0000 S1
G1 F1000 X239.9557 Y14.3865 Z-2.0000 S1
G1 F1000 X239.9541 Y14.3885 Z-2.0000 S1
G1 F1000 X239.9524 Y14.3905 Z-2.0000 S1
G1 F1000 X239.9507 Y14.3925 Z-2.0000 S1
G1 F1000 X239.9490 Y14.3944 Z-2.0000 S1
G1 F1000 X239.9472 Y14.3964 Z-2.0000 S1
G1 F1000 X239.9455 Y14.3983 Z-2.0000 S1
G1 F1000 X239.9437 Y14.4002 Z-2.0000 S1
G1 F1000 X239.9418 Y14.4020 Z-2.0000 S1
G1 F1000 X239.9400 Y14.4039 Z-2.0000 S1
G1 F1000 X239.9381 Y14.4057 Z-2.0000 S1
G1 F1000 X239.9362 Y14.4075 Z-2.0000 S1
G1 F1000 X239.9343 Y14.4092 Z-2.0000 S1
G1 F1000 X239.9323 Y14.4110 Z-2.0000 S1
G1 F1000 X239.9304 Y14.4127 Z-2.0000 S1
G1 F1000 X239.9284 Y14.4144 Z-2.0000 S1
G1 F1000 X239.9264 Y14.4160 Z-2.0000 S1
G1 F1000 X239.9243 Y14.4177 Z-2.0000 S1
G1 F1000 X239.9223 Y14.4193 Z-2.0000 S1
G1 F1000 X239.9202 Y14.4208 Z-2.0000 S1
G1 F1000 X239.9181 Y14.4224 Z-2.0000 S1
G1 F1000 X239.9160 Y14.4239 Z-2.0000 S1
G1 F1000 X239.9139 Y14.4254 Z-2.0000 S1
G1 F1000 X239.9117 Y14.4269 Z-2.0000 S1
G1 F1000 X239.9095 Y14.4283 Z-2.0000 S1
G1 F1000 X239.9073 Y14.4298 Z-2.0000 S1
G1 F1000 X239.9051 Y14.4311 Z-2.0000 S1
G1 F1000 X239.9029 Y14.4325 Z-2.0000 S1
G1 F1000 X239.9007 Y14.4338 Z-2.0000 S1
G1 F1000 X239.8984 Y14.4351 Z-2.0000 S1
G1 F1000 X239.8961 Y14.4364 Z-2.0000 S1
G1 F1000 X239.8938 Y14.4376 Z-2.0000 S1
G1 F1000 X239.8915 Y14.4388 Z-2.0000 S1
G1 F1000 X239.8892 Y14.4400 Z-2.0000 S1
G1 F1000 X239.8868 Y14.4412 Z-2.0000 S1
G1 F1000 X239.8845 Y14.4423 Z-2.0000 S1
G1 F1000 X239.8821 Y14.4434 Z-2.0000 S1
G1 F1000 X239.8797 Y14.4444 Z-2.0000 S1
G1 F1000 X239.8773 Y14.4454 Z-2.0000 S1
G1 F1000 X239.8749 Y14.4464 Z-2.0000 S1
G1 F1000 X239.8725 Y14.4474 Z-2.0000 S1
G1 F1000 X239.8701 Y14.4483 Z-2.0000 S1
G1 F1000 X239.8676 Y14.4492 Z-2.0000 S1
G1 F1000 X239.8651 Y14.4501 Z-2.0000 S1
G1 F1000 X239.8627 Y14.4509 Z-2.0000 S1
G1 F1000 X239.8602 Y14.4517 Z-2.0000 S1
G1 F1000 X239.8577 Y14.4525 Z-2.0000 S1
G1 F1000 X239.8552 Y14.4532 Z-2.0000 S1
G1 F1000 X239.8527 Y14.4539 Z-2.0000 S1
G1 F1000 X239.8502 Y14.4546 Z-2.0000 S1
G1 F1000 X239.8476 Y14.4552 Z-2.0000 S1
G1 F1000 X239.8451 Y14.4558 Z-2.0000 S1
G1 F1000 X239.8426 Y14.4564 Z-2.0000 S1
G1 F1000 X239.8400 Y14.4570 Z-2.0000 S1
G1 F1000 X239.8374 Y14.4575 Z-2.0000 S1
G1 F1000 X239.8349 Y14.4579 Z-2.0000 S1
G1 F1000 X239.8323 Y14.4584 Z-2.0000 S1
G1 F1000 X239.8297 Y14.4588 Z-2.0000 S1
G1 F1000 X239.8271 Y14.4591 Z-2.0000 S1
G1 F1000 X239.8246 Y14.4595 Z-2.0000 S1
G1 F1000 X239.8220 Y14.4598 Z-2.0000 S1
G1 F1000 X239.8194 Y14.4601 Z-2.0000 S1
G1 F1000 X239.8168 Y14.4603 Z-2.0000 S1
G1 F1000 X239.8142 Y14.4605 Z-2.0000 S1
G1 F1000 X239.8116 Y14.4607 Z-2.0000 S1
G1 F1000 X239.8090 Y14.4608 Z-2.0000 S1
G1 F1000 X239.8064 Y14.4609 Z-2.0000 S1
G1 F1000 X239.8038 Y14.4610 Z-2.0000 S1
G1 F1000 X239.8011 Y14.4610 Z-2.0000 S1
G1 F1000 X239.7985 Y14.4610 Z-2.0000 S1
G1 F1000 X239.7959 Y14.4610 Z-2.0000 S1
G1 F1000 X239.7933 Y14.4609 Z-2.0000 S1
G1 F1000 X239.7907 Y14.4608 Z-2.0000 S1
G1 F1000 X239.7881 Y14.4606 Z-2.0000 S1
G1 F1000 X239.7855 Y14.4605 Z-2.0000 S1
G1 F1000 X239.7829 Y14.4603 Z-2.0000 S1
G1 F1000 X239.7803 Y14.4600 Z-2.0000 S1
G1 F1000 X239.8000 Y14.2610 Z-2.0000 S1
G1 F300 Z-3.0000
G1 F1000 X240.0000 Y14.2610 Z-3.0000 S1
G1 F1000 X240.0000 Y14.2636 Z-3.0000 S1
G1 F1000 X239.9999 Y14.2662 Z-3.0000 S1
G1 F1000 X239.9998 Y14.2688 Z-3.0000 S1
G1 F1000 X239.9997 Y14.2714 Z-3.0000 S1
G1 F1000 X239.9996 Y14.2740 Z-3.0000 S1
G1 F1000 X239.9994 Y14.2766 Z-3.0000 S1
G1 F1000 X239.9992 Y14.2792 Z-3.0000 S1
G1 F1000 X239.9989 Y14.2818 Z-3.0000 S1
G1 F1000 X239.9986 Y14.2844 Z-3.0000 S1
G1 F1000 X239.9983 Y14.2870 Z-3.0000 S1
G1 F1000 X239.9979 Y14.2896 Z-3.0000 S1
G1 F1000 X239.9976 Y14.2922 Z-3.0000 S1
G1 F1000 X239.9971 Y14.2947 Z-3.0000 S1
G1 F1000 X239.9967 Y14.2973 Z-3.0000 S1
G1 F1000 X239.9962 Y14.2999 Z-3.0000 S1
G1 F1000 X239.9957 Y14.3024 Z-3.0000 S1
G1 F1000 X239.9951 Y14.3050 Z-3.0000 S1
G1 F1000 X239.9945 Y14.3075 Z-3.0000 S1
G1 F1000 X239.9939 Y14.3101 Z-3.0000 S1
G1 F1000 X239.9932 Y14.3126 Z-3.0000 S1
G1 F1000 X239.9925 Y14.3151 Z-3.0000 S1
G1 F1000 X239.9918 Y14.3176 Z-3.0000 S1
G1 F1000 X239.9911 Y14.3201 Z-3.0000 S1
G1 F1000 X239.9903 Y14.3226 Z-3.0000 S1
G1 F1000 X239.9895 Y14.3251 Z-3.0000 S1
G1 F1000 X239.9886 Y14.3275 Z-3.0000 S1
G1 F1000 X239.9877 Y14.3300 Z-3.0000 S1
G1 F1000 X239.9868 Y14.3324 Z-3.0000 S1
G1 F1000 X239.9859 Y14.3349 Z-3.0000 S1
G1 F1000 X239.9849 Y14.3373 Z-3.0000 S1
G1 F1000 X239.9839 Y14.3397 Z-3.0000 S1
G1 F1000 X239.9828 Y14.3421 Z-3.0000 S1
G1 F1000 X239.9818 Y14.3444 Z-3.0000 S1
G1 F1000 X239.9807 Y14.3468 Z-3.0000 S1
G1 F1000 X239.9795 Y14.3492 Z-3.0000 S1
G1 F1000 X239.9784 Y14.3515 Z-3.0000 S1
G1 F1000 X239.9772 Y14.3538 Z-3.0000 S1
G1 F1000 X239.9759 Y14.3561 Z-3.0000 S1
G1 F1000 X239.9747 Y14.3584 Z-3.0000 S1
G1 F1000 X239.9734 Y14.3607 Z-3.0000 S1
G1 F1000 X239.9721 Y14.3629 Z-3.0000 S1
G1 F1000 X239.9707 Y14.3652 Z-3.0000 S1
G1 F1000 X239.9694 Y14.3674 Z-3.0000 S1
G1 F1000 X239.9680 Y14.3696 Z-3.0000 S1
G1 F1000 X239.9665 Y14.3718 Z-3.0000 S1
G1 F1000 X239.9651 Y14.3739 Z-3.0000 S1
G1 F1000 X239.9636 Y14.3761 Z-3.0000 S1
G1 F1000 X239.9621 Y14.3782 Z-3.0000 S1
G1 F1000 X239.9605 Y14.3803 Z-3.0000 S1
G1 F1000 X239.9590 Y14.3824 Z-3.0000 S1
G1 F1000 X239.9574 Y14.3844 Z-3.0000 S1
G1 F1000 X239.9557 Y14.3865 Z-3.0000 S1
G1 F1000 X239.9541 Y14.3885 Z-3.0000 S1
G1 F1000 X239.9524 Y14.3905 Z-3.0000 S1
G1 F1000 X239.9507 Y14.3925 Z-3.0000 S1
G1 F1000 X239.9490 Y14.3944 Z-3.0000 S1
G1 F1000 X239.9472 Y14.3964 Z-3.0000 S1
G1 F1000 X239.9455 Y14.3983 Z-3.0000 S1
G1 F1000 X239.9437 Y14.4002 Z-3.0000 S1
G1 F1000 X239.9418 Y14.4020 Z-3.0000 S1
G1 F1000 X239.9400 Y14.4039 Z-3.0000 S1
G1 F1000 X239.9381 Y14.4057 Z-3.0000 S1
G1 F1000 X239.9362 Y14.4075 Z-3.0000 S1
G1 F1000 X239.9343 Y14.4092 Z-3.0000 S1
G1 F1000 X239.9323 Y14.4110 Z-3.0000 S1
G1 F1000 X239.9304 Y14.4127 Z-3.0000 S1
G1 F1000 X239.9284 Y14.4144 Z-3.0000 S1
G1 F1000 X239.9264 Y14.4160 Z-3.0000 S1
G1 F1000 X239.9243 Y14.4177 Z-3.0000 S1
G1 F1000 X239.9223 Y14.4193 Z-3.0000 S1
G1 F1000 X239.9202 Y14.4208 Z-3.0000 S1
G1 F1000 X239.9181 Y14.4224 Z-3.0000 S1
G1 F1000 X239.9160 Y14.4239 Z-3.0000 S1
G1 F1000 X239.9139 Y14.4254 Z-3.0000 S1
G1 F1000 X239.9117 Y14.4269 Z-3.0000 S1
G1 F1000 X239.9095 Y14.4283 Z-3.0000 S1
G1 F1000 X239.9073 Y14.4298 Z-3.0000 S1
G1 F1000 X239.9051 Y14.4311 Z-3.0000 S1
G1 F1000 X239.9029 Y14.4325 Z-3.0000 S1
G1 F1000 X239.9007 Y14.4338 Z-3.0000 S1
G1 F1000 X239.8984 Y14.4351 Z-3.0000 S1
G1 F1000 X239.8961 Y14.4364 Z-3.0000 S1
G1 F1000 X239.8938 Y14.4376 Z-3.0000 S1
G1 F1000 X239.8915 Y14.4388 Z-3.0000 S1
G1 F1000 X239.8892 Y14.4400 Z-3.0000 S1
G1 F1000 X239.8868 Y14.4412 Z-3.0000 S1
G1 F1000 X239.8845 Y14.4423 Z-3.0000 S1
G1 F1000 X239.8821 Y14.4434 Z-3.0000 S1
G1 F1000 X239.8797 Y14.4444 Z-3.0000 S1
G1 F1000 X239.8773 Y14.4454 Z-3.0000 S1
G1 F1000 X239.8749 Y14.4464 Z-3.0000 S1
G1 F1000 X239.8725 Y14.4474 Z-3.0000 S1
G1 F1000 X239.8701 Y14.4483 Z-3.0000 S1
G1 F1000 X239.8676 Y14.4492 Z-3.0000 S1
G1 F1000 X239.8651 Y14.4501 Z-3.0000 S1
G1 F1000 X239.8627 Y14.4509 Z-3.0000 S1
G1 F1000 X239.8602 Y14.4517 Z-3.0000 S1
G1 F1000 X239.8577 Y14.4525 Z-3.0000 S1
G1 F1000 X239.8552 Y14.4532 Z-3.0000 S1
G1 F1000 X239.8527 Y14.4539 Z-3.0000 S1
G1 F1000 X239.8502 Y14.4546 Z-3.0000 S1
G1 F1000 X239.8476 Y14.4552 Z-3.0000 S1
G1 F1000 X239.8451 Y14.4558 Z-3.0000 S1
G1 F1000 X239.8426 Y14.4564 Z-3.0000 S1
G1 F1000 X239.8400 Y14.4570 Z-3.0000 S1
G1 F1000 X239.8374 Y14.4575 Z-3.0000 S1
G1 F1000 X239.8349 Y14.4579 Z-3.0000 S1
G1 F1000 X239.8323 Y14.4584 Z-3.0000 S1
G1 F1000 X239.8297 Y14.4588 Z-3.0000 S1
G1 F1000 X239.8271 Y14.4591 Z-3.0000 S1
G1 F1000 X239.8246 Y14.4595 Z-3.0000 S1
G1 F1000 X239.8220 Y14.4598 Z-3.0000 S1
G1 F1000 X239.8194 Y14.4601 Z-3.0000 S1
G1 F1000 X239.8168 Y14.4603 Z-3.0000 S1
G1 F1000 X239.8142 Y14.4605 Z-3.0000 S1
G1 F1000 X239.8116 Y14.4607 Z-3.0000 S1
G1 F1000 X239.8090 Y14.4608 Z-3.0000 S1
G1 F1000 X239.8064 Y14.4609 Z-3.0000 S1
G1 F1000 X239.8038 Y14.4610 Z-3.0000 S1
G1 F1000 X239.8011 Y14.4610 Z-3.0000 S1
G1 F1000 X239.7985 Y14.4610 Z-3.0000 S1
G1 F1000 X239.7959 Y14.4610 Z-3.0000 S1
G1 F1000 X239.7933 Y14.4609 Z-3.0000 S1
G1 F1000 X239.7907 Y14.4608 Z-3.0000 S1
G1 F1000 X239.7881 Y14.4606 Z-3.0000 S1
G1 F1000 X239.7855 Y14.4605 Z-3.0000 S1
G1 F1000 X239.7829 Y14.4603 Z-3.0000 S1
G1 F1000 X239.7803 Y14.4600 Z-3.0000 S1
G1 F1000 X239.8000 Y14.2610 Z-3.0000 S1
G1 F300 Z-4.0000
G1 F1000 X240.0000 Y14.2610 Z-4.0000 S1
G1 F1000 X240.0000 Y14.2636 Z-4.0000 S1
G1 F1000 X239.9999 Y14.2662 Z-4.0000 S1
G1 F1000 X239.9998 Y14.2688 Z-4.0000 S1
G1 F1000 X239.9997 Y14.2714 Z-4.0000 S1
G1 F1000 X239.9996 Y14.2740 Z-4.0000 S1
G1 F1000 X239.9994 Y14.2766 Z-4.0000 S1
G1 F1000 X239.9992 Y14.2792 Z-4.0000 S1
G1 F1000 X239.9989 Y14.2818 Z-4.0000 S1
G1 F1000 X239.9986 Y14.2844 Z-4.0000 S1
G1 F1000 X239.9983 Y14.2870 Z-4.0000 S1
G1 F1000 X239.9979 Y14.2896 Z-4.0000 S1
G1 F1000 X239.9976 Y14.2922 Z-4.0000 S1
G1 F1000 X239.9971 Y14.2947 Z-4.0000 S1
G1 F1000 X239.9967 Y14.2973 Z-4.0000 S1
G1 F1000 X239.9962 Y14.2999 Z-4.0000 S1
G1 F1000 X239.9957 Y14.3024 Z-4.0000 S1
G1 F1000 X239.9951 Y14.3050 Z-4.0000 S1
G1 F1000 X239.9945 Y14.3075 Z-4.0000 S1
G1 F1000 X239.9939 Y14.3101 Z-4.0000 S1
G1 F1000 X239.9932 Y14.3126 Z-4.0000 S1
G1 F1000 X239.9925 Y14.3151 Z-4.0000 S1
G1 F1000 X239.9918 Y14.3176 Z-4.0000 S1
G1 F1000 X239.9911 Y14.3201 Z-4.0000 S1
G1 F1000 X239.9903 Y14.3226 Z-4.0000 S1
G1 F1000 X239.9895 Y14.3251 Z-4.0000 S1
G1 F1000 X239.9886 Y14.3275 Z-4.0000 S1
G1 F1000 X239.9877 Y14.3300 Z-4.0000 S1
G1 F1000 X239.9868 Y14.3324 Z-4.0000 S1
G1 F1000 X239.9859 Y14.3349 Z-4.0000 S1
G1 F1000 X239.9849 Y14.3373 Z-4.0000 S1
G1 F1000 X239.9839 Y14.3397 Z-4.0000 S1
G1 F1000 X239.9828 Y14.3421 Z-4.0000 S1
G1 F1000 X239.9818 Y14.3444 Z-4.0000 S1
G1 F1000 X239.9807 Y14.3468 Z-4.0000 S1
G1 F1000 X239.9795 Y14.3492 Z-4.0000 S1
G1 F1000 X239.9784 Y14.3515 Z-4.0000 S1
G1 F1000 X239.9772 Y14.3538 Z-4.0000 S1
G1 F1000 X239.9759 Y14.3561 Z-4.0000 S1
G1 F1000 X239.9747 Y14.3584 Z-4.0000 S1
G1 F1000 X239.9734 Y14.3607 Z-4.0000 S1
G1 F1000 X239.9721 Y14.3629 Z-4.0000 S1
G1 F1000 X239.9707 Y14.3652 Z-4.0000 S1
G1 F1000 X239.9694 Y14.3674 Z-4.0000 S1
G1 F1000 X239.9680 Y14.3696 Z-4.0000 S1
G1 F1000 X239.9665 Y14.3718 Z-4.0000 S1
G1 F1000 X239.9651 Y14.3739 Z-4.0000 S1
G1 F1000 X239.9636 Y14.3761 Z-4.0000 S1
G1 F1000 X239.9621 Y14.3782 Z-4.0000 S1
G1 F1000 X239.9605 Y14.3803 Z-4.0000 S1
G1 F1000 X239.9590 Y14.3824 Z-4.0000 S1
G1 F1000 X239.9574 Y14.3844 Z-4.0000 S1
G1 F1000 X239.9557 Y14.3865 Z-4.0000 S1
G1 F1000 X239.9541 Y14.3885 Z-4.0000 S1
G1 F1000 X239.9524 Y14.3905 Z-4.0000 S1
G1 F1000 X239.9507 Y14.3925 Z-4.0000 S1
G1 F1000 X239.9490 Y14.3944 Z-4.0000 S1
G1 F1000 X239.9472 Y14.3964 Z-4.0000 S1
G1 F1000 X239.9455 Y14.3983 Z-4.0000 S1
G1 F1000 X239.9437 Y14.4002 Z-4.0000 S1
G1 F1000 X239.9418 Y14.4020 Z-4.0000 S1
G1 F1000 X239.9400 Y14.4039 Z-4.0000 S1
G1 F1000 X239.9381 Y14.4057 Z-4.0000 S1
G1 F1000 X239.9362 Y14.4075 Z-4.0000 S1
G1 F1000 X239.9343 Y14.4092 Z-4.0000 S1
G1 F1000 X239.9323 Y14.4110 Z-4.0000 S1
G1 F1000 X239.9304 Y14.4127 Z-4.0000 S1
G1 F1000 X239.9284 Y14.4144 Z-4.0000 S1
G1 F1000 X239.9264 Y14.4160 Z-4.0000 S1
G1 F1000 X239.9243 Y14.4177 Z-4.0000 S1
G1 F1000 X239.9223 Y14.4193 Z-4.0000 S1
G1 F1000 X239.9202 Y14.4208 Z-4.0000 S1
G1 F1000 X239.9181 Y14.4224 Z-4.0000 S1
G1 F1000 X239.9160 Y14.4239 Z-4.0000 S1
G1 F1000 X239.9139 Y14.4254 Z-4.0000 S1
G1 F1000 X239.9117 Y14.4269 Z-4.0000 S1
G1 F1000 X239.9095 Y14.4283 Z-4.0000 S1
G1 F1000 X239.9073 Y14.4298 Z-4.0000 S1
G1 F1000 X239.9051 Y14.4311 Z-4.0000 S1
G1 F1000 X239.9029 Y14.4325 Z-4.0000 S1
G1 F1000 X239.9007 Y14.4338 Z-4.0000 S1
G1 F1000 X239.8984 Y14.4351 Z-4.0000 S1
G1 F1000 X239.8961 Y14.4364 Z-4.0000 S1
G1 F1000 X239.8938 Y14.4376 Z-4.0000 S1
G1 F1000 X239.8915 Y14.4388 Z-4.0000 S1
G1 F1000 X239.8892 Y14.4400 Z-4.0000 S1
G1 F1000 X239.8868 Y14.4412 Z-4.0000 S1
G1 F1000 X239.8845 Y14.4423 Z-4.0000 S1
G1 F1000 X239.8821 Y14.4434 Z-4.0000 S1
G1 F1000 X239.8797 Y14.4444 Z-4.0000 S1
G1 F1000 X239.8773 Y14.4454 Z-4.0000 S1
G1 F1000 X239.8749 Y14.4464 Z-4.0000 S1
G1 F1000 X239.8725 Y14.4474 Z-4.0000 S1
G1 F1000 X239.8701 Y14.4483 Z-4.0000 S1
G1 F1000 X239.8676 Y14.4492 Z-4.0000 S1
G1 F1000 X239.8651 Y14.4501 Z-4.0000 S1
G1 F1000 X239.8627 Y14.4509 Z-4.0000 S1
G1 F1000 X239.8602 Y14.4517 Z-4.0000 S1
G1 F1000 X239.8577 Y14.4525 Z-4.0000 S1
G1 F1000 X239.8552 Y14.4532 Z-4.0000 S1
G1 F1000 X239.8527 Y14.4539 Z-4.0000 S1
G1 F1000 X239.8502 Y14.4546 Z-4.0000 S1
G1 F1000 X239.8476 Y14.4552 Z-4.0000 S1
G1 F1000 X239.8451 Y14.4558 Z-4.0000 S1
G1 F1000 X239.8426 Y14.4564 Z-4.0000 S1
G1 F1000 X239.8400 Y14.4570 Z-4.0000 S1
G1 F1000 X239.8374 Y14.4575 Z-4.0000 S1
G1 F1000 X239.8349 Y14.4579 Z-4.0000 S1
G1 F1000 X239.8323 Y14.4584 Z-4.0000 S1
G1 F1000 X239.8297 Y14.4588 Z-4.0000 S1
G1 F1000 X239.8271 Y14.4591 Z-4.0000 S1
G1 F1000 X239.8246 Y14.4595 Z-4.0000 S1
G1 F1000 X239.8220 Y14.4598 Z-4.0000 S1
G1 F1000 X239.8194 Y14.4601 Z-4.0000 S1
G1 F1000 X239.8168 Y14.4603 Z-4.0000 S1
G1 F1000 X239.8142 Y14.4605 Z-4.0000 S1
G1 F1000 X239.8116 Y14.4607 Z-4.0000 S1
G1 F1000 X239.8090 Y14.4608 Z-4.0000 S1
G1 F1000 X239.8064 Y14.4609 Z-4.0000 S1
G1 F1000 X239.8038 Y14.4610 Z-4.0000 S1
G1 F1000 X239.8011 Y14.4610 Z-4.0000 S1
G1 F1000 X239.7985 Y14.4610 Z-4.0000 S1
G1 F1000 X239.7959 Y14.4610 Z-4.0000 S1
G1 F1000 X239.7933 Y14.4609 Z-4.0000 S1
G1 F1000 X239.7907 Y14.4608 Z-4.0000 S1
G1 F1000 X239.7881 Y14.4606 Z-4.0000 S1
G1 F1000 X239.7855 Y14.4605 Z-4.0000 S1
G1 F1000 X239.7829 Y14.4603 Z-4.0000 S1
G1 F1000 X239.7803 Y14.4600 Z-4.0000 S1
G1 F1000 X239.8000 Y14.2610 Z-4.0000 S1
G1 F300 Z-5.0000
G1 F1000 X240.0000 Y14.2610 Z-5.0000 S1
G1 F1000 X240.0000 Y14.2636 Z-5.0000 S1
G1 F1000 X239.9999 Y14.2662 Z-5.0000 S1
G1 F1000 X239.9998 Y14.2688 Z-5.0000 S1
G1 F1000 X239.9997 Y14.2714 Z-5.0000 S1
G1 F1000 X239.9996 Y14.2740 Z-5.0000 S1
G1 F1000 X239.9994 Y14.2766 Z-5.0000 S1
G1 F1000 X239.9992 Y14.2792 Z-5.0000 S1
G1 F1000 X239.9989 Y14.2818 Z-5.0000 S1
G1 F1000 X239.9986 Y14.2844 Z-5.0000 S1
G1 F1000 X239.9983 Y14.2870 Z-5.0000 S1
G1 F1000 X239.9979 Y14.2896 Z-5.0000 S1
G1 F1000 X239.9976 Y14.2922 Z-5.0000 S1
G1 F1000 X239.9971 Y14.2947 Z-5.0000 S1
G1 F1000 X239.9967 Y14.2973 Z-5.0000 S1
G1 F1000 X239.9962 Y14.2999 Z-5.0000 S1
G1 F1000 X239.9957 Y14.3024 Z-5.0000 S1
G1 F1000 X239.9951 Y14.3050 Z-5.0000 S1
G1 F1000 X239.9945 Y14.3075 Z-5.0000 S1
G1 F1000 X239.9939 Y14.3101 Z-5.0000 S1
G1 F1000 X239.9932 Y14.3126 Z-5.0000 S1
G1 F1000 X239.9925 Y14.3151 Z-5.0000 S1
G1 F1000 X239.9918 Y14.3176 Z-5.0000 S1
G1 F1000 X239.9911 Y14.3201 Z-5.0000 S1
G1 F1000 X239.9903 Y14.3226 Z-5.0000 S1
G1 F1000 X239.9895 Y14.3251 Z-5.0000 S1
G1 F1000 X239.9886 Y14.3275 Z-5.0000 S1
G1 F1000 X239.9877 Y14.3300 Z-5.0000 S1
G1 F1000 X239.9868 Y14.3324 Z-5.0000 S1
G1 F1000 X239.9859 Y14.3349 Z-5.0000 S1
G1 F1000 X239.9849 Y14.3373 Z-5.0000 S1
G1 F1000 X239.9839 Y14.3397 Z-5.0000 S1
G1 F1000 X239.9828 Y14.3421 Z-5.0000 S1
G1 F1000 X239.9818 Y14.3444 Z-5.0000 S1
G1 F1000 X239.9807 Y14.3468 Z-5.0000 S1
G1 F1000 X239.9795 Y14.3492 Z-5.0000 S1
G1 F1000 X239.9784 Y14.3515 Z-5.0000 S1
G1 F1000 X239.9772 Y14.3538 Z-5.0000 S1
G1 F1000 X239.9759 Y14.3561 Z-5.0000 S1
G1 F1000 X239.9747 Y14.3584 Z-5.0000 S1
G1 F1000 X239.9734 Y14.3607 Z-5.0000 S1
G1 F1000 X239.9721 Y14.3629 Z-5.0000 S1
G1 F1000 X239.9707 Y14.3652 Z-5.0000 S1
G1 F1000 X239.9694 Y14.3674 Z-5.0000 S1
G1 F1000 X239.9680 Y14.3696 Z-5.0000 S1
G1 F1000 X239.9665 Y14.3718 Z-5.0000 S1
G1 F1000 X239.9651 Y14.3739 Z-5.0000 S1
G1 F1000 X239.9636 Y14.3761 Z-5.0000 S1
G1 F1000 X239.9621 Y14.3782 Z-5.0000 S1
G1 F1000 X239.9605 Y14.3803 Z-5.0000 S1
G1 F1000 X239.9590 Y14.3824 Z-5.0000 S1
G1 F1000 X239.9574 Y14.3844 Z-5.0000 S1
G1 F1000 X239.9557 Y14.3865 Z-5.0000 S1
G1 F1000 X239.9541 Y14.3885 Z-5.0000 S1
G1 F1000 X239.9524 Y14.3905 Z-5.0000 S1
G1 F1000 X239.9507 Y14.3925 Z-5.0000 S1
G1 F1000 X239.9490 Y14.3944 Z-5.0000 S1
G1 F1000 X239.9472 Y14.3964 Z-5.0000 S1
G1 F1000 X239.9455 Y14.3983 Z-5.0000 S1
G1 F1000 X239.9437 Y14.4002 Z-5.0000 S1
G1 F1000 X239.9418 Y14.4020 Z-5.0000 S1
G1 F1000 X239.9400 Y14.4039 Z-5.0000 S1
G1 F1000 X239.9381 Y14.4057 Z-5.0000 S1
G1 F1000 X239.9362 Y14.4075 Z-5.0000 S1
G1 F1000 X239.9343 Y14.4092 Z-5.0000 S1
G1 F1000 X239.9323 Y14.4110 Z-5.0000 S1
G1 F1000 X239.9304 Y14.4127 Z-5.0000 S1
G1 F1000 X239.9284 Y14.4144 Z-5.0000 S1
G1 F1000 X239.9264 Y14.4160 Z-5.0000 S1
G1 F1000 X239.9243 Y14.4177 Z-5.0000 S1
G1 F1000 X239.9223 Y14.4193 Z-5.0000 S1
G1 F1000 X239.9202 Y14.4208 Z-5.0000 S1
G1 F1000 X239.9181 Y14.4224 Z-5.0000 S1
G1 F1000 X239.9160 Y14.4239 Z-5.0000 S1
G1 F1000 X239.9139 Y14.4254 Z-5.0000 S1
G1 F1000 X239.9117 Y14.4269 Z-5.0000 S1
G1 F1000 X239.9095 Y14.4283 Z-5.0000 S1
G1 F1000 X239.9073 Y14.4298 Z-5.0000 S1
G1 F1000 X239.9051 Y14.4311 Z-5.0000 S1
G1 F1000 X239.9029 Y14.4325 Z-5.0000 S1
G1 F1000 X239.9007 Y14.4338 Z-5.0000 S1
G1 F1000 X239.8984 Y14.4351 Z-5.0000 S1
G1 F1000 X239.8961 Y14.4364 Z-5.0000 S1
G1 F1000 X239.8938 Y14.4376 Z-5.0000 S1
G1 F1000 X239.8915 Y14.4388 Z-5.0000 S1
G1 F1000 X239.8892 Y14.4400 Z-5.0000 S1
G1 F1000 X239.8868 Y14.4412 Z-5.0000 S1
G1 F1000 X239.8845 Y14.4423 Z-5.0000 S1
G1 F1000 X239.8821 Y14.4434 Z-5.0000 S1
G1 F1000 X239.8797 Y14.4444 Z-5.0000 S1
G1 F1000 X239.8773 Y14.4454 Z-5.0000 S1
G1 F1000 X239.8749 Y14.4464 Z-5.0000 S1
G1 F1000 X239.8725 Y14.4474 Z-5.0000 S1
G1 F1000 X239.8701 Y14.4483 Z-5.0000 S1
G1 F1000 X239.8676 Y14.4492 Z-5.0000 S1
G1 F1000 X239.8651 Y14.4501 Z-5.0000 S1
G1 F1000 X239.8627 Y14.4509 Z-5.0000 S1
G1 F1000 X239.8602 Y14.4517 Z-5.0000 S1
G1 F1000 X239.8577 Y14.4525 Z-5.0000 S1
G1 F1000 X239.8552 Y14.4532 Z-5.0000 S1
G1 F1000 X239.8527 Y14.4539 Z-5.0000 S1
G1 F1000 X239.8502 Y14.4546 Z-5.0000 S1
G1 F1000 X239.8476 Y14.4552 Z-5.0000 S1
G1 F1000 X239.8451 Y14.4558 Z-5.0000 S1
G1 F1000 X239.8426 Y14.4564 Z-5.0000 S1
G1 F1000 X239.8400 Y14.4570 Z-5.0000 S1
G1 F1000 X239.8374 Y14.4575 Z-5.0000 S1
G1 F1000 X239.8349 Y14.4579 Z-5.0000 S1
G1 F1000 X239.8323 Y14.4584 Z-5.0000 S1
G1 F1000 X239.8297 Y14.4588 Z-5.0000 S1
G1 F1000 X239.8271 Y14.4591 Z-5.0000 S1
G1 F1000 X239.8246 Y14.4595 Z-5.0000 S1
G1 F1000 X239.8220 Y14.4598 Z-5.0000 S1
G1 F1000 X239.8194 Y14.4601 Z-5.0000 S1
G1 F1000 X239.8168 Y14.4603 Z-5.0000 S1
G1 F1000 X239.8142 Y14.4605 Z-5.0000 S1
G1 F1000 X239.8116 Y14.4607 Z-5.0000 S1
G1 F1000 X239.8090 Y14.4608 Z-5.0000 S1
G1 F1000 X239.8064 Y14.4609 Z-5.0000 S1
G1 F1000 X239.8038 Y14.4610 Z-5.0000 S1
G1 F1000 X239.8011 Y14.4610 Z-5.0000 S1
G1 F1000 X239.7985 Y14.4610 Z-5.0000 S1
G1 F1000 X239.7959 Y14.4610 Z-5.0000 S1
G1 F1000 X239.7933 Y14.4609 Z-5.0000 S1
G1 F1000 X239.7907 Y14.4608 Z-5.0000 S1
G1 F1000 X239.7881 Y14.4606 Z-5.0000 S1
G1 F1000 X239.7855 Y14.4605 Z-5.0000 S1
G1 F1000 X239.7829 Y14.4603 Z-5.0000 S1
G1 F1000 X239.7803 Y14.4600 Z-5.0000 S1
G1 F1000 X239.8000 Y14.2610 Z-5.0000 S1
G1 F300 Z-6.0000
G1 F1000 X240.0000 Y14.2610 Z-6.0000 S1
G1 F1000 X240.0000 Y14.2636 Z-6.0000 S1
G1 F1000 X239.9999 Y14.2662 Z-6.0000 S1
G1 F1000 X239.9998 Y14.2688 Z-6.0000 S1
G1 F1000 X239.9997 Y14.2714 Z-6.0000 S1
G1 F1000 X239.9996 Y14.2740 Z-6.0000 S1
G1 F1000 X239.9994 Y14.2766 Z-6.0000 S1
G1 F1000 X239.9992 Y14.2792 Z-6.0000 S1
G1 F1000 X239.9989 Y14.2818 Z-6.0000 S1
G1 F1000 X239.9986 Y14.2844 Z-6.0000 S1
G1 F1000 X239.9983 Y14.2870 Z-6.0000 S1
G1 F1000 X239.9979 Y14.2896 Z-6.0000 S1
G1 F1000 X239.9976 Y14.2922 Z-6.0000 S1
G1 F1000 X239.9971 Y14.2947 Z-6.0000 S1
G1 F1000 X239.9967 Y14.2973 Z-6.0000 S1
G1 F1000 X239.9962 Y14.2999 Z-6.0000 S1
G1 F1000 X239.9957 Y14.3024 Z-6.0000 S1
G1 F1000 X239.9951 Y14.3050 Z-6.0000 S1
G1 F1000 X239.9945 Y14.3075 Z-6.0000 S1
G1 F1000 X239.9939 Y14.3101 Z-6.0000 S1
G1 F1000 X239.9932 Y14.3126 Z-6.0000 S1
G1 F1000 X239.9925 Y14.3151 Z-6.0000 S1
G1 F1000 X239.9918 Y14.3176 Z-6.0000 S1
G1 F1000 X239.9911 Y14.3201 Z-6.0000 S1
G1 F1000 X239.9903 Y14.3226 Z-6.0000 S1
G1 F1000 X239.9895 Y14.3251 Z-6.0000 S1
G1 F1000 X239.9886 Y14.3275 Z-6.0000 S1
G1 F1000 X239.9877 Y14.3300 Z-6.0000 S1
G1 F1000 X239.9868 Y14.3324 Z-6.0000 S1
G1 F1000 X239.9859 Y14.3349 Z-6.0000 S1
G1 F1000 X239.9849 Y14.3373 Z-6.0000 S1
G1 F1000 X239.9839 Y14.3397 Z-6.0000 S1
G1 F1000 X239.9828 Y14.3421 Z-6.0000 S1
G1 F1000 X239.9818 Y14.3444 Z-6.0000 S1
G1 F1000 X239.9807 Y14.3468 Z-6.0000 S1
G1 F1000 X239.9795 Y14.3492 Z-6.0000 S1
G1 F1000 X239.9784 Y14.3515 Z-6.0000 S1
G1 F1000 X239.9772 Y14.3538 Z-6.0000 S1
G1 F1000 X239.9759 Y14.3561 Z-6.0000 S1
G1 F1000 X239.9747 Y14.3584 Z-6.0000 S1
G1 F1000 X239.9734 Y14.3607 Z-6.0000 S1
G1 F1000 X239.9721 Y14.3629 Z-6.0000 S1
G1 F1000 X239.9707 Y14.3652 Z-6.0000 S1
G1 F1000 X239.9694 Y14.3674 Z-6.0000 S1
G1 F1000 X239.9680 Y14.3696 Z-6.0000 S1
G1 F1000 X239.9665 Y14.3718 Z-6.0000 S1
G1 F1000 X239.9651 Y14.3739 Z-6.0000 S1
G1 F1000 X239.9636 Y14.3761 Z-6.0000 S1
G1 F1000 X239.9621 Y14.3782 Z-6.0000 S1
G1 F1000 X239.9605 Y14.3803 Z-6.0000 S1
G1 F1000 X239.9590 Y14.3824 Z-6.0000 S1
G1 F1000 X239.9574 Y14.3844 Z-6.0000 S1
G1 F1000 X239.9557 Y14.3865 Z-6.0000 S1
G1 F1000 X239.9541 Y14.3885 Z-6.0000 S1
G1 F1000 X239.9524 Y14.3905 Z-6.0000 S1
G1 F1000 X239.9507 Y14.3925 Z-6.0000 S1
G1 F1000 X239.9490 Y14.3944 Z-6.0000 S1
G1 F1000 X239.9472 Y14.3964 Z-6.0000 S1
G1 F1000 X239.9455 Y14.3983 Z-6.0000 S1
G1 F1000 X239.9437 Y14.4002 Z-6.0000 S1
G1 F1000 X239.9418 Y14.4020 Z-6.0000 S1
G1 F1000 X239.9400 Y14.4039 Z-6.0000 S1
G1 F1000 X239.9381 Y14.4057 Z-6.0000 S1
G1 F1000 X239.9362 Y14.4075 Z-6.0000 S1
G1 F1000 X239.9343 Y14.4092 Z-6.0000 S1
G1 F1000 X239.9323 Y14.4110 Z-6.0000 S1
G1 F1000 X239.9304 Y14.4127 Z-6.0000 S1
G1 F1000 X239.9284 Y14.4144 Z-6.0000 S1
G1 F1000 X239.9264 Y14.4160 Z-6.0000 S1
G1 F1000 X239.9243 Y14.4177 Z-6.0000 S1
G1 F1000 X239.9223 Y14.4193 Z-6.0000 S1
G1 F1000 X239.9202 Y14.4208 Z-6.0000 S1
G1 F1000 X239.9181 Y14.4224 Z-6.0000 S1
G1 F1000 X239.9160 Y14.4239 Z-6.0000 S1
G1 F1000 X239.9139 Y14.4254 Z-6.0000 S1
G1 F1000 X239.9117 Y14.4269 Z-6.0000 S1
G1 F1000 X239.9095 Y14.4283 Z-6.0000 S1
G1 F1000 X239.9073 Y14.4298 Z-6.0000 S1
G1 F1000 X239.9051 Y14.4311 Z-6.0000 S1
G1 F1000 X239.9029 Y14.4325 Z-6.0000 S1
G1 F1000 X239.9007 Y14.4338 Z-6.0000 S1
G1 F1000 X239.8984 Y14.4351 Z-6.0000 S1
G1 F1000 X239.8961 Y14.4364 Z-6.0000 S1
G1 F1000 X239.8938 Y14.4376 Z-6.0000 S1
G1 F1000 X239.8915 Y14.4388 Z-6.0000 S1
G1 F1000 X239.8892 Y14.4400 Z-6.0000 S1
G1 F1000 X239.8868 Y14.4412 Z-6.0000 S1
G1 F1000 X239.8845 Y14.4423 Z-6.0000 S1
G1 F1000 X239.8821 Y14.4434 Z-6.0000 S1
G1 F1000 X239.8797 Y14.4444 Z-6.0000 S1
G1 F1000 X239.8773 Y14.4454 Z-6.0000 S1
G1 F1000 X239.8749 Y14.4464 Z-6.0000 S1
G1 F1000 X239.8725 Y14.4474 Z-6.0000 S1
G1 F1000 X239.8701 Y14.4483 Z-6.0000 S1
G1 F1000 X239.8676 Y14.4492 Z-6.0000 S1
G1 F1000 X239.8651 Y14.4501 Z-6.0000 S1
G1 F1000 X239.8627 Y14.4509 Z-6.0000 S1
G1 F1000 X239.8602 Y14.4517 Z-6.0000 S1
G1 F1000 X239.8577 Y14.4525 Z-6.0000 S1
G1 F1000 X239.8552 Y14.4532 Z-6.0000 S1
G1 F1000 X239.8527 Y14.4539 Z-6.0000 S1
G1 F1000 X239.8502 Y14.4546 Z-6.0000 S1
G1 F1000 X239.8476 Y14.4552 Z-6.0000 S1
G1 F1000 X239.8451 Y14.4558 Z-6.0000 S1
G1 F1000 X239.8426 Y14.4564 Z-6.0000 S1
G1 F1000 X239.8400 Y14.4570 Z-6.0000 S1
G1 F1000 X239.8374 Y14.4575 Z-6.0000 S1
G1 F1000 X239.8349 Y14.4579 Z-6.0000 S1
G1 F1000 X239.8323 Y14.4584 Z-6.0000 S1
G1 F1000 X239.8297 Y14.4588 Z-6.0000 S1
G1 F1000 X239.8271 Y14.4591 Z-6.0000 S1
G1 F1000 X239.8246 Y14.4595 Z-6.0000 S1
G1 F1000 X239.8220 Y14.4598 Z-6.0000 S1
G1 F1000 X239.8194 Y14.4601 Z-6.0000 S1
G1 F1000 X239.8168 Y14.4603 Z-6.0000 S1
G1 F1000 X239.8142 Y14.4605 Z-6.0000 S1
G1 F1000 X239.8116 Y14.4607 Z-6.0000 S1
G1 F1000 X239.8090 Y14.4608 Z-6.0000 S1
G1 F1000 X239.8064 Y14.4609 Z-6.0000 S1
G1 F1000 X239.8038 Y14.4610 Z-6.0000 S1
G1 F1000 X239.8011 Y14.4610 Z-6.0000 S1
G1 F1000 X239.7985 Y14.4610 Z-6.0000 S1
G1 F1000 X239.7959 Y14.4610 Z-6.0000 S1
G1 F1000 X239.7933 Y14.4609 Z-6.0000 S1
G1 F1000 X239.7907 Y14.4608 Z-6.0000 S1
G1 F1000 X239.7881 Y14.4606 Z-6.0000 S1
G1 F1000 X239.7855 Y14.4605 Z-6.0000 S1
G1 F1000 X239.7829 Y14.4603 Z-6.0000 S1
G1 F1000 X239.7803 Y14.4600 Z-6.0000 S1
G1 F1000 X239.8000 Y14.2610 Z-6.0000 S1

G0 Z10; move to z-safe height
G0 X235.3000 Y59.7390

G0 Z0
G1 F300 Z-1.0000
G1 F1000 X235.1000 Y59.7390 Z-1.0000 S1
G1 F1000 X235.1000 Y59.7364 Z-1.0000 S1
G1 F1000 X235.1001 Y59.7338 Z-1.0000 S1
G1 F1000 X235.1002 Y59.7312 Z-1.0000 S1
G1 F1000 X235.1003 Y59.7286 Z-1.0000 S1
G1 F1000 X235.1004 Y59.7260 Z-1.0000 S1
G1 F1000 X235.1006 Y59.7234 Z-1.0000 S1
G1 F1000 X235.1008 Y59.7208 Z-1.0000 S1
G1 F1000 X235.1011 Y59.7182 Z-1.0000 S1
G1 F1000 X235.1014 Y59.7156 Z-1.0000 S1
G1 F1000 X235.1017 Y59.7130 Z-1.0000 S1
G1 F1000 X235.1021 Y59.7104 Z-1.0000 S1
G1 F1000 X235.1024 Y59.7078 Z-1.0000 S1
G1 F1000 X235.1029 Y59.7053 Z-1.0000 S1
G1 F1000 X235.1033 Y59.7027 Z-1.0000 S1
G1 F1000 X235.1038 Y59.7001 Z-1.0000 S1
G1 F1000 X235.1043 Y59.6976 Z-1.0000 S1
G1 F1000 X235.1049 Y59.6950 Z-1.0000 S1
G1 F1000 X235.1055 Y59.6925 Z-1.0000 S1
G1 F1000 X235.1061 Y59.6899 Z-1.0000 S1
G1 F1000 X235.1068 Y59.6874 Z-1.0000 S1
G1 F1000 X235.1075 Y59.6849 Z-1.0000 S1
G1 F1000 X235.1082 Y59.6824 Z-1.0000 S1
G1 F1000 X235.1089 Y59.6799 Z-1.0000 S1
G1 F1000 X235.1097 Y59.6774 Z-1.0000 S1
G1 F1000 X235.1105 Y59.6749 Z-1.0000 S1
G1 F1000 X235.1114 Y59.6725 Z-1.0000 S1
G1 F1000 X235.1123 Y59.6700 Z-1.0000 S1
G1 F1000 X235.1132 Y59.6676 Z-1.0000 S1
G1 F1000 X235.1141 Y59.6651 Z-1.0000 S1
G1 F1000 X235.1151 Y59.6627 Z-1.0000 S1
G1 F1000 X235.1161 Y59.6603 Z-1.0000 S1
G1 F1000 X235.1172 Y59.6579 Z-1.0000 S1
G1 F1000 X235.1182 Y59.6556 Z-1.0000 S1
G1 F1000 X235.1193 Y59.6532 Z-1.0000 S1
G1 F1000 X235.1205 Y59.6508 Z-1.0000 S1
G1 F1000 X235.1216 Y59.6485 Z-1.0000 S1
G1 F1000 X235.1228 Y59.6462 Z-1.0000 S1
G1 F1000 X235.1241 Y59.6439 Z-1.0000 S1
G1 F1000 X235.1253 Y59.6416 Z-1.0000 S1
G1 F1000 X235.1266 Y59.6393 Z-1.0000 S1
G1 F1000 X235.1279 Y59.6371 Z-1.0000 S1
G1 F1000 X235.1293 Y59.6348 Z-1.0000 S1
G1 F1000 X235.1306 Y59.6326 Z-1.0000 S1
G1 F1000 X235.1320 Y59.6304 Z-1.0000 S1
G1 F1000 X235.1335 Y59.6282 Z-1.0000 S1
G1 F1000 X235.1349 Y59.6261 Z-1.0000 S1
G1 F1000 X235.1364 Y59.6239 Z-1.0000 S1
G1 F1000 X235.1379 Y59.6218 Z-1.0000 S1
G1 F1000 X235.1395 Y59.6197 Z-1.0000 S1
G1 F1000 X235.1410 Y59.6176 Z-1.0000 S1
G1 F1000 X235.1426 Y59.6156 Z-1.0000 S1
G1 F1000 X235.1443 Y59.6135 Z-1.0000 S1
G1 F1000 X235.1459 Y59.6115 Z-1.0000 S1
G1 F1000 X235.1476 Y59.6095 Z-1.0000 S1
G1 F1000 X235.1493 Y59.6075 Z-1.0000 S1
G1 F1000 X235.1510 Y59.6056 Z-1.0000 S1
G1 F1000 X235.1528 Y59.6036 Z-1.0000 S1
G1 F1000 X235.1545 Y59.6017 Z-1.0000 S1
G1 F1000 X235.1563 Y59.5998 Z-1.0000 S1
G1 F1000 X235.1582 Y59.5980 Z-1.0000 S1
G1 F1000 X235.1600 Y59.5961 Z-1.0000 S1
G1 F1000 X235.1619 Y59.5943 Z-1.0000 S1
G1 F1000 X235.1638 Y59.5925 Z-1.0000 S1
G1 F1000 X235.1657 Y59.5908 Z-1.0000 S1
G1 F1000 X235.1677 Y59.5890 Z-1.0000 S1
G1 F1000 X235.1696 Y59.5873 Z-1.0000 S1
G1 F1000 X235.1716 Y59.5856 Z-1.0000 S1
G1 F1000 X235.1736 Y59.5840 Z-1.0000 S1
G1 F1000 X235.1757 Y59.5823 Z-1.0000 S1
G1 F1000 X235.1777 Y59.5807 Z-1.0000 S1
G1 F1000 X235.1798 Y59.5792 Z-1.0000 S1
G1 F1000 X235.1819 Y59.5776 Z-1.0000 S1
G1 F1000 X235.1840 Y59.5761 Z-1.0000 S1
G1 F1000 X235.1861 Y59.5746 Z-1.0000 S1
G1 F1000 X235.1883 Y59.5731 Z-1.0000 S1
G1 F1000 X235.1905 Y59.5717 Z-1.0000 S1
G1 F1000 X235.1927 Y59.5702 Z-1.0000 S1
G1 F1000 X235.1949 Y59.5689 Z-1.0000 S1
G1 F1000 X235.1971 Y59.5675 Z-1.0000 S1
G1 F1000 X235.1993 Y59.5662 Z-1.0000 S1
G1 F1000 X235.2016 Y59.5649 Z-1.0000 S1
G1 F1000 X235.2039 Y59.5636 Z-1.0000 S1
G1 F1000 X235.2062 Y59.5624 Z-1.0000 S1
G1 F1000 X235.2085 Y59.5612 Z-1.0000 S1
G1 F1000 X235.2108 Y59.5600 Z-1.0000 S1
G1 F1000 X235.2132 Y59.5588 Z-1.0000 S1
G1 F1000 X235.2155 Y59.5577 Z-1.0000 S1
G1 F1000 X235.2179 Y59.5566 Z-1.0000 S1
G1 F1000 X235.2203 Y59.5556 Z-1.0000 S1
G1 F1000 X235.2227 Y59.5546 Z-1.0000 S1
G1 F1000 X235.2251 Y59.5536 Z-1.0000 S1
G1 F1000 X235.2275 Y59.5526 Z-1.0000 S1
G1 F1000 X235.2299 Y59.5517 Z-1.0000 S1
G1 F1000 X235.2324 Y59.5508 Z-1.0000 S1
G1 F1000 X235.2349 Y59.5499 Z-1.0000 S1
G1 F1000 X235.2373 Y59.5491 Z-1.0000 S1
G1 F1000 X235.2398 Y59.5483 Z-1.0000 S1
G1 F1000 X235.2423 Y59.5475 Z-1.0000 S1
G1 F1000 X235.2448 Y59.5468 Z-1.0000 S1
G1 F1000 X235.2473 Y59.5461 Z-1.0000 S1
G1 F1000 X235.2498 Y59.5454 Z-1.0000 S1
G1 F1000 X235.2524 Y59.5448 Z-1.0000 S1
G1 F1000 X235.2549 Y59.5442 Z-1.0000 S1
G1 F1000 X235.2574 Y59.5436 Z-1.0000 S1
G1 F1000 X235.2600 Y59.5430 Z-1.0000 S1
G1 F1000 X235.2626 Y59.5425 Z-1.0000 S1
G1 F1000 X235.2651 Y59.5421 Z-1.0000 S1
G1 F1000 X235.2677 Y59.5416 Z-1.0000 S1
G1 F1000 X235.2703 Y59.5412 Z-1.0000 S1
G1 F1000 X235.2729 Y59.5409 Z-1.0000 S1
G1 F1000 X235.2754 Y59.5405 Z-1.0000 S1
G1 F1000 X235.2780 Y59.5402 Z-1.0000 S1
G1 F1000 X235.2806 Y59.5399 Z-1.0000 S1
G1 F1000 X235.2832 Y59.5397 Z-1.0000 S1
G1 F1000 X235.2858 Y59.5395 Z-1.0000 S1
G1 F1000 X235.2884 Y59.5393 Z-1.0000 S1
G1 F1000 X235.2910 Y59.5392 Z-1.0000 S1
G1 F1000 X235.2936 Y59.5391 Z-1.0000 S1
G1 F1000 X235.2962 Y59.5390 Z-1.0000 S1
G1 F1000 X235.2989 Y59.5390 Z-1.0000 S1
G1 F1000 X235.3015 Y59.5390 Z-1.0000 S1
G1 F1000 X235.3041 Y59.5390 Z-1.0000 S1
G1 F1000 X235.3067 Y59.5391 Z-1.0000 S1
G1 F1000 X235.3093 Y59.5392 Z-1.0000 S1
G1 F1000 X235.3119 Y59.5394 Z-1.0000 S1
G1 F1000 X235.3145 Y59.5395 Z-1.0000 S1
G1 F1000 X235.3171 Y59.5397 Z-1.0000 S1
G1 F1000 X235.3197 Y59.5400 Z-1.0000 S1
G1 F1000 X235.3000 Y59.7390 Z-1.0000 S1
G1 F300 Z-2.0000
G1 F1000 X235.1000 Y59.7390 Z-2.0000 S1
G1 F1000 X235.1000 Y59.7364 Z-2.0000 S1
G1 F1000 X235.1001 Y59.7338 Z-2.0000 S1
G1 F1000 X235.1002 Y59.7312 Z-2.0000 S1
G1 F1000 X235.1003 Y59.7286 Z-2.0000 S1
G1 F1000 X235.1004 Y59.7260 Z-2.0000 S1
G1 F1000 X235.1006 Y59.7234 Z-2.0000 S1
G1 F1000 X235.1008 Y59.7208 Z-2.0000 S1
G1 F1000 X235.1011 Y59.7182 Z-2.0000 S1
G1 F1000 X235.1014 Y59.7156 Z-2.0000 S1
G1 F1000 X235.1017 Y59.7130 Z-2.0000 S1
G1 F1000 X235.1021 Y59.7104 Z-2.0000 S1
G1 F1000 X235.1024 Y59.7078 Z-2.0000 S1
G1 F1000 X235.1029 Y59.7053 Z-2.0000 S1
G1 F1000 X235.1033 Y59.7027 Z-2.0000 S1
G1 F1000 X235.1038 Y59.7001 Z-2.0000 S1
G1 F1000 X235.1043 Y59.6976 Z-2.0000 S1
G1 F1000 X235.1049 Y59.6950 Z-2.0000 S1
G1 F1000 X235.1055 Y59.6925 Z-2.0000 S1
G1 F1000 X235.1061 Y59.6899 Z-2.0000 S1
G1 F1000 X235.1068 Y59.6874 Z-2.0000 S1
G1 F1000 X235.1075 Y59.6849 Z-2.0000 S1
G1 F1000 X235.1082 Y59.6824 Z-2.0000 S1
G1 F1000 X235.1089 Y59.6799 Z-2.0000 S1
G1 F1000 X235.1097 Y59.6774 Z-2.0000 S1
G1 F1000 X235.1105 Y59.6749 Z-2.0000 S1
G1 F1000 X235.1114 Y59.6725 Z-2.0000 S1
G1 F1000 X235.1123 Y59.6700 Z-2.0000 S1
G1 F1000 X235.1132 Y59.6676 Z-2.0000 S1
G1 F1000 X235.1141 Y59.6651 Z-2.0000 S1
G1 F1000 X235.1151 Y59.6627 Z-2.0000 S1
G1 F1000 X235.1161 Y59.6603 Z-2.0000 S1
G1 F1000 X235.1172 Y59.6579 Z-2.0000 S1
G1 F1000 X235.1182 Y59.6556 Z-2.0000 S1
G1 F1000 X235.1193 Y59.6532 Z-2.0000 S1
G1 F1000 X235.1205 Y59.6508 Z-2.0000 S1
G1 F1000 X235.1216 Y59.6485 Z-2.0000 S1
G1 F1000 X235.1228 Y59.6462 Z-2.0000 S1
G1 F1000 X235.1241 Y59.6439 Z-2.0000 S1
G1 F1000 X235.1253 Y59.6416 Z-2.0000 S1
G1 F1000 X235.1266 Y59.6393 Z-2.0000 S1
G1 F1000 X235.1279 Y59.6371 Z-2.0000 S1
G1 F1000 X235.1293 Y59.6348 Z-2.0000 S1
G1 F1000 X235.1306 Y59.6326 Z-2.0000 S1
G1 F1000 X235.1320 Y59.6304 Z-2.0000 S1
G1 F1000 X235.1335 Y59.6282 Z-2.0000 S1
G1 F1000 X235.1349 Y59.6261 Z-2.0000 S1
G1 F1000 X235.1364 Y59.6239 Z-2.0000 S1
G1 F1000 X235.1379 Y59.6218 Z-2.0000 S1
G1 F1000 X235.1395 Y59.6197 Z-2.0000 S1
G1 F1000 X235.1410 Y59.6176 Z-2.0000 S1
G1 F1000 X235.1426 Y59.6156 Z-2.0000 S1
G1 F1000 X235.1443 Y59.6135 Z-2.0000 S1
G1 F1000 X235.1459 Y59.6115 Z-2.0000 S1
G1 F1000 X235.1476 Y59.6095 Z-2.0000 S1
G1 F1000 X235.1493 Y59.6075 Z-2.0000 S1
G1 F1000 X235.1510 Y59.6056 Z-2.0000 S1
G1 F1000 X235.1528 Y59.6036 Z-2.0000 S1
G1 F1000 X235.1545 Y59.6017 Z-2.0000 S1
G1 F1000 X235.1563 Y59.5998 Z-2.0000 S1
G1 F1000 X235.1582 Y59.5980 Z-2.0000 S1
G1 F1000 X235.1600 Y59.5961 Z-2.0000 S1
G1 F1000 X235.1619 Y59.5943 Z-2.0000 S1
G1 F1000 X235.1638 Y59.5925 Z-2.0000 S1
G1 F1000 X235.1657 Y59.5908 Z-2.0000 S1
G1 F1000 X235.1677 Y59.5890 Z-2.0000 S1
G1 F1000 X235.1696 Y59.5873 Z-2.0000 S1
G1 F1000 X235.1716 Y59.5856 Z-2.0000 S1
G1 F1000 X235.1736 Y59.5840 Z-2.0000 S1
G1 F1000 X235.1757 Y59.5823 Z-2.0000 S1
G1 F1000 X235.1777 Y59.5807 Z-2.0000 S1
G1 F1000 X235.1798 Y59.5792 Z-2.0000 S1
G1 F1000 X235.1819 Y59.5776 Z-2.0000 S1
G1 F1000 X235.1840 Y59.5761 Z-2.0000 S1
G1 F1000 X235.1861 Y59.5746 Z-2.0000 S1
G1 F1000 X235.1883 Y59.5731 Z-2.0000 S1
G1 F1000 X235.1905 Y59.5717 Z-2.0000 S1
G1 F1000 X235.1927 Y59.5702 Z-2.0000 S1
G1 F1000 X235.1949 Y59.5689 Z-2.0000 S1
G1 F1000 X235.1971 Y59.5675 Z-2.0000 S1
G1 F1000 X235.1993 Y59.5662 Z-2.0000 S1
G1 F1000 X235.2016 Y59.5649 Z-2.0000 S1
G1 F1000 X235.2039 Y59.5636 Z-2.0000 S1
G1 F1000 X235.2062 Y59.5624 Z-2.0000 S1
G1 F1000 X235.2085 Y59.5612 Z-2.0000 S1
G1 F1000 X235.2108 Y59.5600 Z-2.0000 S1
G1 F1000 X235.2132 Y59.5588 Z-2.0000 S1
G1 F1000 X235.2155 Y59.5577 Z-2.0000 S1
G1 F1000 X235.2179 Y59.5566 Z-2.0000 S1
G1 F1000 X235.2203 Y59.5556 Z-2.0000 S1
G1 F1000 X235.2227 Y59.5546 Z-2.0000 S1
G1 F1000 X235.2251 Y59.5536 Z-2.0000 S1
G1 F1000 X235.2275 Y59.5526 Z-2.0000 S1
G1 F1000 X235.2299 Y59.5517 Z-2.0000 S1
G1 F1000 X235.2324 Y59.5508 Z-2.0000 S1
G1 F1000 X235.2349 Y59.5499 Z-2.0000 S1
G1 F1000 X235.2373 Y59.5491 Z-2.0000 S1
G1 F1000 X235.2398 Y59.5483 Z-2.0000 S1
G1 F1000 X235.2423 Y59.5475 Z-2.0000 S1
G1 F1000 X235.2448 Y59.5468 Z-2.0000 S1
G1 F1000 X235.2473 Y59.5461 Z-2.0000 S1
G1 F1000 X235.2498 Y59.5454 Z-2.0000 S1
G1 F1000 X235.2524 Y59.5448 Z-2.0000 S1
G1 F1000 X235.2549 Y59.5442 Z-2.0000 S1
G1 F1000 X235.2574 Y59.5436 Z-2.0000 S1
G1 F1000 X235.2600 Y59.5430 Z-2.0000 S1
G1 F1000 X235.2626 Y59.5425 Z-2.0000 S1
G1 F1000 X235.2651 Y59.5421 Z-2.0000 S1
G1 F1000 X235.2677 Y59.5416 Z-2.0000 S1
G1 F1000 X235.2703 Y59.5412 Z-2.0000 S1
G1 F1000 X235.2729 Y59.5409 Z-2.0000 S1
G1 F1000 X235.2754 Y59.5405 Z-2.0000 S1
G1 F1000 X235.2780 Y59.5402 Z-2.0000 S1
G1 F1000 X235.2806 Y59.5399 Z-2.0000 S1
G1 F1000 X235.2832 Y59.5397 Z-2.0000 S1
G1 F1000 X235.2858 Y59.5395 Z-2.0000 S1
G1 F1000 X235.2884 Y59.5393 Z-2.0000 S1
G1 F1000 X235.2910 Y59.5392 Z-2.0000 S1
G1 F1000 X235.2936 Y59.5391 Z-2.0000 S1
G1 F1000 X235.2962 Y59.5390 Z-2.0000 S1
G1 F1000 X235.2989 Y59.5390 Z-2.0000 S1
G1 F1000 X235.3015 Y59.5390 Z-2.0000 S1
G1 F1000 X235.3041 Y59.5390 Z-2.0000 S1
G1 F1000 X235.3067 Y59.5391 Z-2.0000 S1
G1 F1000 X235.3093 Y59.5392 Z-2.0000 S1
G1 F1000 X235.3119 Y59.5394 Z-2.0000 S1
G1 F1000 X235.3145 Y59.5395 Z-2.0000 S1
G1 F1000 X235.3171 Y59.5397 Z-2.0000 S1
G1 F1000 X235.3197 Y59.5400 Z-2.0000 S1
G1 F1000 X235.3000 Y59.7390 Z-2.0000 S1
G1 F300 Z-3.0000
G1 F1000 X235.1000 Y59.7390 Z-3.0000 S1
G1 F1000 X235.1000 Y59.7364 Z-3.0000 S1
G1 F1000 X235.1001 Y59.7338 Z-3.0000 S1
G1 F1000 X235.1002 Y59.7312 Z-3.0000 S1
G1 F1000 X235.1003 Y59.7286 Z-3.0000 S1
G1 F1000 X235.1004 Y59.7260 Z-3.0000 S1
G1 F1000 X235.1006 Y59.7234 Z-3.0000 S1
G1 F1000 X235.1008 Y59.7208 Z-3.0000 S1
G1 F1000 X235.1011 Y59.7182 Z-3.0000 S1
G1 F1000 X235.1014 Y59.7156 Z-3.0000 S1
G1 F1000 X235.1017 Y59.7130 Z-3.0000 S1
G1 F1000 X235.1021 Y59.7104 Z-3.0000 S1
G1 F1000 X235.1024 Y59.7078 Z-3.0000 S1
G1 F1000 X235.1029 Y59.7053 Z-3.0000 S1
G1 F1000 X235.1033 Y59.7027 Z-3.0000 S1
G1 F1000 X235.1038 Y59.7001 Z-3.0000 S1
G1 F1000 X235.1043 Y59.6976 Z-3.0000 S1
G1 F1000 X235.1049 Y59.6950 Z-3.0000 S1
G1 F1000 X235.1055 Y59.6925 Z-3.0000 S1
G1 F1000 X235.1061 Y59.6899 Z-3.0000 S1
G1 F1000 X235.1068 Y59.6874 Z-3.0000 S1
G1 F1000 X235.1075 Y59.6849 Z-3.0000 S1
G1 F1000 X235.1082 Y59.6824 Z-3.0000 S1
G1 F1000 X235.1089 Y59.6799 Z-3.0000 S1
G1 F1000 X235.1097 Y59.6774 Z-3.0000 S1
G1 F1000 X235.1105 Y59.6749 Z-3.0000 S1
G1 F1000 X235.1114 Y59.6725 Z-3.0000 S1
G1 F1000 X235.1123 Y59.6700 Z-3.0000 S1
G1 F1000 X235.1132 Y59.6676 Z-3.0000 S1
G1 F1000 X235.1141 Y59.6651 Z-3.0000 S1
G1 F1000 X235.1151 Y59.6627 Z-3.0000 S1
G1 F1000 X235.1161 Y59.6603 Z-3.0000 S1
G1 F1000 X235.1172 Y59.6579 Z-3.0000 S1
G1 F1000 X235.1182 Y59.6556 Z-3.0000 S1
G1 F1000 X235.1193 Y59.6532 Z-3.0000 S1
G1 F1000 X235.1205 Y59.6508 Z-3.0000 S1
G1 F1000 X235.1216 Y59.6485 Z-3.0000 S1
G1 F1000 X235.1228 Y59.6462 Z-3.0000 S1
G1 F1000 X235.1241 Y59.6439 Z-3.0000 S1
G1 F1000 X235.1253 Y59.6416 Z-3.0000 S1
G1 F1000 X235.1266 Y59.6393 Z-3.0000 S1
G1 F1000 X235.1279 Y59.6371 Z-3.0000 S1
G1 F1000 X235.1293 Y59.6348 Z-3.0000 S1
G1 F1000 X235.1306 Y59.6326 Z-3.0000 S1
G1 F1000 X235.1320 Y59.6304 Z-3.0000 S1
G1 F1000 X235.1335 Y59.6282 Z-3.0000 S1
G1 F1000 X235.1349 Y59.6261 Z-3.0000 S1
G1 F1000 X235.1364 Y59.6239 Z-3.0000 S1
G1 F1000 X235.1379 Y59.6218 Z-3.0000 S1
G1 F1000 X235.1395 Y59.6197 Z-3.0000 S1
G1 F1000 X235.1410 Y59.6176 Z-3.0000 S1
G1 F1000 X235.1426 Y59.6156 Z-3.0000 S1
G1 F1000 X235.1443 Y59.6135 Z-3.0000 S1
G1 F1000 X235.1459 Y59.6115 Z-3.0000 S1
G1 F1000 X235.1476 Y59.6095 Z-3.0000 S1
G1 F1000 X235.1493 Y59.6075 Z-3.0000 S1
G1 F1000 X235.1510 Y59.6056 Z-3.0000 S1
G1 F1000 X235.1528 Y59.6036 Z-3.0000 S1
G1 F1000 X235.1545 Y59.6017 Z-3.0000 S1
G1 F1000 X235.1563 Y59.5998 Z-3.0000 S1
G1 F1000 X235.1582 Y59.5980 Z-3.0000 S1
G1 F1000 X235.1600 Y59.5961 Z-3.0000 S1
G1 F1000 X235.1619 Y59.5943 Z-3.0000 S1
G1 F1000 X235.1638 Y59.5925 Z-3.0000 S1
G1 F1000 X235.1657 Y59.5908 Z-3.0000 S1
G1 F1000 X235.1677 Y59.5890 Z-3.0000 S1
G1 F1000 X235.1696 Y59.5873 Z-3.0000 S1
G1 F1000 X235.1716 Y59.5856 Z-3.0000 S1
G1 F1000 X235.1736 Y59.5840 Z-3.0000 S1
G1 F1000 X235.1757 Y59.5823 Z-3.0000 S1
G1 F1000 X235.1777 Y59.5807 Z-3.0000 S1
G1 F1000 X235.1798 Y59.5792 Z-3.0000 S1
G1 F1000 X235.1819 Y59.5776 Z-3.0000 S1
G1 F1000 X235.1840 Y59.5761 Z-3.0000 S1
G1 F1000 X235.1861 Y59.5746 Z-3.0000 S1
G1 F1000 X235.1883 Y59.5731 Z-3.0000 S1
G1 F1000 X235.1905 Y59.5717 Z-3.0000 S1
G1 F1000 X235.1927 Y59.5702 Z-3.0000 S1
G1 F1000 X235.1949 Y59.5689 Z-3.0000 S1
G1 F1000 X235.1971 Y59.5675 Z-3.0000 S1
G1 F1000 X235.1993 Y59.5662 Z-3.0000 S1
G1 F1000 X235.2016 Y59.5649 Z-3.0000 S1
G1 F1000 X235.2039 Y59.5636 Z-3.0000 S1
G1 F1000 X235.2062 Y59.5624 Z-3.0000 S1
G1 F1000 X235.2085 Y59.5612 Z-3.0000 S1
G1 F1000 X235.2108 Y59.5600 Z-3.0000 S1
G1 F1000 X235.2132 Y59.5588 Z-3.0000 S1
G1 F1000 X235.2155 Y59.5577 Z-3.0000 S1
G1 F1000 X235.2179 Y59.5566 Z-3.0000 S1
G1 F1000 X235.2203 Y59.5556 Z-3.0000 S1
G1 F1000 X235.2227 Y59.5546 Z-3.0000 S1
G1 F1000 X235.2251 Y59.5536 Z-3.0000 S1
G1 F1000 X235.2275 Y59.5526 Z-3.0000 S1
G1 F1000 X235.2299 Y59.5517 Z-3.0000 S1
G1 F1000 X235.2324 Y59.5508 Z-3.0000 S1
G1 F1000 X235.2349 Y59.5499 Z-3.0000 S1
G1 F1000 X235.2373 Y59.5491 Z-3.0000 S1
G1 F1000 X235.2398 Y59.5483 Z-3.0000 S1
G1 F1000 X235.2423 Y59.5475 Z-3.0000 S1
G1 F1000 X235.2448 Y59.5468 Z-3.0000 S1
G1 F1000 X235.2473 Y59.5461 Z-3.0000 S1
G1 F1000 X235.2498 Y59.5454 Z-3.0000 S1
G1 F1000 X235.2524 Y59.5448 Z-3.0000 S1
G1 F1000 X235.2549 Y59.5442 Z-3.0000 S1
G1 F1000 X235.2574 Y59.5436 Z-3.0000 S1
G1 F1000 X235.2600 Y59.5430 Z-3.0000 S1
G1 F1000 X235.2626 Y59.5425 Z-3.0000 S1
G1 F1000 X235.2651 Y59.5421 Z-3.0000 S1
G1 F1000 X235.2677 Y59.5416 Z-3.0000 S1
G1 F1000 X235.2703 Y59.5412 Z-3.0000 S1
G1 F1000 X235.2729 Y59.5409 Z-3.0000 S1
G1 F1000 X235.2754 Y59.5405 Z-3.0000 S1
G1 F1000 X235.2780 Y59.5402 Z-3.0000 S1
G1 F1000 X235.2806 Y59.5399 Z-3.0000 S1
G1 F1000 X235.2832 Y59.5397 Z-3.0000 S1
G1 F1000 X235.2858 Y59.5395 Z-3.0000 S1
G1 F1000 X235.2884 Y59.5393 Z-3.0000 S1
G1 F1000 X235.2910 Y59.5392 Z-3.0000 S1
G1 F1000 X235.2936 Y59.5391 Z-3.0000 S1
G1 F1000 X235.2962 Y59.5390 Z-3.0000 S1
G1 F1000 X235.2989 Y59.5390 Z-3.0000 S1
G1 F1000 X235.3015 Y59.5390 Z-3.0000 S1
G1 F1000 X235.3041 Y59.5390 Z-3.0000 S1
G1 F1000 X235.3067 Y59.5391 Z-3.0000 S1
G1 F1000 X235.3093 Y59.5392 Z-3.0000 S1
G1 F1000 X235.3119 Y59.5394 Z-3.0000 S1
G1 F1000 X235.3145 Y59.5395 Z-3.0000 S1
G1 F1000 X235.3171 Y59.5397 Z-3.0000 S1
G1 F1000 X235.3197 Y59.5400 Z-3.0000 S1
G1 F1000 X235.3000 Y59.7390 Z-3.0000 S1
G1 F300 Z-4.0000
G1 F1000 X235.1000 Y59.7390 Z-4.0000 S1
G1 F1000 X235.1000 Y59.7364 Z-4.0000 S1
G1 F1000 X235.1001 Y59.7338 Z-4.0000 S1
G1 F1000 X235.1002 Y59.7312 Z-4.0000 S1
G1 F1000 X235.1003 Y59.7286 Z-4.0000 S1
G1 F1000 X235.1004 Y59.7260 Z-4.0000 S1
G1 F1000 X235.1006 Y59.7234 Z-4.0000 S1
G1 F1000 X235.1008 Y59.7208 Z-4.0000 S1
G1 F1000 X235.1011 Y59.7182 Z-4.0000 S1
G1 F1000 X235.1014 Y59.7156 Z-4.0000 S1
G1 F1000 X235.1017 Y59.7130 Z-4.0000 S1
G1 F1000 X235.1021 Y59.7104 Z-4.0000 S1
G1 F1000 X235.1024 Y59.7078 Z-4.0000 S1
G1 F1000 X235.1029 Y59.7053 Z-4.0000 S1
G1 F1000 X235.1033 Y59.7027 Z-4.0000 S1
G1 F1000 X235.1038 Y59.7001 Z-4.0000 S1
G1 F1000 X235.1043 Y59.6976 Z-4.0000 S1
G1 F1000 X235.1049 Y59.6950 Z-4.0000 S1
G1 F1000 X235.1055 Y59.6925 Z-4.0000 S1
G1 F1000 X235.1061 Y59.6899 Z-4.0000 S1
G1 F1000 X235.1068 Y59.6874 Z-4.0000 S1
G1 F1000 X235.1075 Y59.6849 Z-4.0000 S1
G1 F1000 X235.1082 Y59.6824 Z-4.0000 S1
G1 F1000 X235.1089 Y59.6799 Z-4.0000 S1
G1 F1000 X235.1097 Y59.6774 Z-4.0000 S1
G1 F1000 X235.1105 Y59.6749 Z-4.0000 S1
G1 F1000 X235.1114 Y59.6725 Z-4.0000 S1
G1 F1000 X235.1123 Y59.6700 Z-4.0000 S1
G1 F1000 X235.1132 Y59.6676 Z-4.0000 S1
G1 F1000 X235.1141 Y59.6651 Z-4.0000 S1
G1 F1000 X235.1151 Y59.6627 Z-4.0000 S1
G1 F1000 X235.1161 Y59.6603 Z-4.0000 S1
G1 F1000 X235.1172 Y59.6579 Z-4.0000 S1
G1 F1000 X235.1182 Y59.6556 Z-4.0000 S1
G1 F1000 X235.1193 Y59.6532 Z-4.0000 S1
G1 F1000 X235.1205 Y59.6508 Z-4.0000 S1
G1 F1000 X235.1216 Y59.6485 Z-4.0000 S1
G1 F1000 X235.1228 Y59.6462 Z-4.0000 S1
G1 F1000 X235.1241 Y59.6439 Z-4.0000 S1
G1 F1000 X235.1253 Y59.6416 Z-4.0000 S1
G1 F1000 X235.1266 Y59.6393 Z-4.0000 S1
G1 F1000 X235.1279 Y59.6371 Z-4.0000 S1
G1 F1000 X235.1293 Y59.6348 Z-4.0000 S1
G1 F1000 X235.1306 Y59.6326 Z-4.0000 S1
G1 F1000 X235.1320 Y59.6304 Z-4.0000 S1
G1 F1000 X235.1335 Y59.6282 Z-4.0000 S1
G1 F1000 X235.1349 Y59.6261 Z-4.0000 S1
G1 F1000 X235.1364 Y59.6239 Z-4.0000 S1
G1 F1000 X235.1379 Y59.6218 Z-4.0000 S1
G1 F1000 X235.1395 Y59.6197 Z-4.0000 S1
G1 F1000 X235.1410 Y59.6176 Z-4.0000 S1
G1 F1000 X235.1426 Y59.6156 Z-4.0000 S1
G1 F1000 X235.1443 Y59.6135 Z-4.0000 S1
G1 F1000 X235.1459 Y59.6115 Z-4.0000 S1
G1 F1000 X235.1476 Y59.6095 Z-4.0000 S1
G1 F1000 X235.1493 Y59.6075 Z-4.0000 S1
G1 F1000 X235.1510 Y59.6056 Z-4.0000 S1
G1 F1000 X235.1528 Y59.6036 Z-4.0000 S1
G1 F1000 X235.1545 Y59.6017 Z-4.0000 S1
G1 F1000 X235.1563 Y59.5998 Z-4.0000 S1
G1 F1000 X235.1582 Y59.5980 Z-4.0000 S1
G1 F1000 X235.1600 Y59.5961 Z-4.0000 S1
G1 F1000 X235.1619 Y59.5943 Z-4.0000 S1
G1 F1000 X235.1638 Y59.5925 Z-4.0000 S1
G1 F1000 X235.1657 Y59.5908 Z-4.0000 S1
G1 F1000 X235.1677 Y59.5890 Z-4.0000 S1
G1 F1000 X235.1696 Y59.5873 Z-4.0000 S1
G1 F1000 X235.1716 Y59.5856 Z-4.0000 S1
G1 F1000 X235.1736 Y59.5840 Z-4.0000 S1
G1 F1000 X235.1757 Y59.5823 Z-4.0000 S1
G1 F1000 X235.1777 Y59.5807 Z-4.0000 S1
G1 F1000 X235.1798 Y59.5792 Z-4.0000 S1
G1 F1000 X235.1819 Y59.5776 Z-4.0000 S1
G1 F1000 X235.1840 Y59.5761 Z-4.0000 S1
G1 F1000 X235.1861 Y59.5746 Z-4.0000 S1
G1 F1000 X235.1883 Y59.5731 Z-4.0000 S1
G1 F1000 X235.1905 Y59.5717 Z-4.0000 S1
G1 F1000 X235.1927 Y59.5702 Z-4.0000 S1
G1 F1000 X235.1949 Y59.5689 Z-4.0000 S1
G1 F1000 X235.1971 Y59.5675 Z-4.0000 S1
G1 F1000 X235.1993 Y59.5662 Z-4.0000 S1
G1 F1000 X235.2016 Y59.5649 Z-4.0000 S1
G1 F1000 X235.2039 Y59.5636 Z-4.0000 S1
G1 F1000 X235.2062 Y59.5624 Z-4.0000 S1
G1 F1000 X235.2085 Y59.5612 Z-4.0000 S1
G1 F1000 X235.2108 Y59.5600 Z-4.0000 S1
G1 F1000 X235.2132 Y59.5588 Z-4.0000 S1
G1 F1000 X235.2155 Y59.5577 Z-4.0000 S1
G1 F1000 X235.2179 Y59.5566 Z-4.0000 S1
G1 F1000 X235.2203 Y59.5556 Z-4.0000 S1
G1 F1000 X235.2227 Y59.5546 Z-4.0000 S1
G1 F1000 X235.2251 Y59.5536 Z-4.0000 S1
G1 F1000 X235.2275 Y59.5526 Z-4.0000 S1
G1 F1000 X235.2299 Y59.5517 Z-4.0000 S1
G1 F1000 X235.2324 Y59.5508 Z-4.0000 S1
G1 F1000 X235.2349 Y59.5499 Z-4.0000 S1
G1 F1000 X235.2373 Y59.5491 Z-4.0000 S1
G1 F1000 X235.2398 Y59.5483 Z-4.0000 S1
G1 F1000 X235.2423 Y59.5475 Z-4.0000 S1
G1 F1000 X235.2448 Y59.5468 Z-4.0000 S1
G1 F1000 X235.2473 Y59.5461 Z-4.0000 S1
G1 F1000 X235.2498 Y59.5454 Z-4.0000 S1
G1 F1000 X235.2524 Y59.5448 Z-4.0000 S1
G1 F1000 X235.2549 Y59.5442 Z-4.0000 S1
G1 F1000 X235.2574 Y59.5436 Z-4.0000 S1
G1 F1000 X235.2600 Y59.5430 Z-4.0000 S1
G1 F1000 X235.2626 Y59.5425 Z-4.0000 S1
G1 F1000 X235.2651 Y59.5421 Z-4.0000 S1
G1 F1000 X235.2677 Y59.5416 Z-4.0000 S1
G1 F1000 X235.2703 Y59.5412 Z-4.0000 S1
G1 F1000 X235.2729 Y59.5409 Z-4.0000 S1
G1 F1000 X235.2754 Y59.5405 Z-4.0000 S1
G1 F1000 X235.2780 Y59.5402 Z-4.0000 S1
G1 F1000 X235.2806 Y59.5399 Z-4.0000 S1
G1 F1000 X235.2832 Y59.5397 Z-4.0000 S1
G1 F1000 X235.2858 Y59.5395 Z-4.0000 S1
G1 F1000 X235.2884 Y59.5393 Z-4.0000 S1
G1 F1000 X235.2910 Y59.5392 Z-4.0000 S1
G1 F1000 X235.2936 Y59.5391 Z-4.0000 S1
G1 F1000 X235.2962 Y59.5390 Z-4.0000 S1
G1 F1000 X235.2989 Y59.5390 Z-4.0000 S1
G1 F1000 X235.3015 Y59.5390 Z-4.0000 S1
G1 F1000 X235.3041 Y59.5390 Z-4.0000 S1
G1 F1000 X235.3067 Y59.5391 Z-4.0000 S1
G1 F1000 X235.3093 Y59.5392 Z-4.0000 S1
G1 F1000 X235.3119 Y59.5394 Z-4.0000 S1
G1 F1000 X235.3145 Y59.5395 Z-4.0000 S1
G1 F1000 X235.3171 Y59.5397 Z-4.0000 S1
G1 F1000 X235.3197 Y59.5400 Z-4.0000 S1
G1 F1000 X235.3000 Y59.7390 Z-4.0000 S1
G1 F300 Z-5.0000
G1 F1000 X235.1000 Y59.7390 Z-5.0000 S1
G1 F1000 X235.1000 Y59.7364 Z-5.0000 S1
G1 F1000 X235.1001 Y59.7338 Z-5.0000 S1
G1 F1000 X235.1002 Y59.7312 Z-5.0000 S1
G1 F1000 X235.1003 Y59.7286 Z-5.0000 S1
G1 F1000 X235.1004 Y59.7260 Z-5.0000 S1
G1 F1000 X235.1006 Y59.7234 Z-5.0000 S1
G1 F1000 X235.1008 Y59.7208 Z-5.0000 S1
G1 F1000 X235.1011 Y59.7182 Z-5.0000 S1
G1 F1000 X235.1014 Y59.7156 Z-5.0000 S1
G1 F1000 X235.1017 Y59.7130 Z-5.0000 S1
G1 F1000 X235.1021 Y59.7104 Z-5.0000 S1
G1 F1000 X235.1024 Y59.7078 Z-5.0000 S1
G1 F1000 X235.1029 Y59.7053 Z-5.0000 S1
G1 F1000 X235.1033 Y59.7027 Z-5.0000 S1
G1 F1000 X235.1038 Y59.7001 Z-5.0000 S1
G1 F1000 X235.1043 Y59.6976 Z-5.0000 S1
G1 F1000 X235.1049 Y59.6950 Z-5.0000 S1
G1 F1000 X235.1055 Y59.6925 Z-5.0000 S1
G1 F1000 X235.1061 Y59.6899 Z-5.0000 S1
G1 F1000 X235.1068 Y59.6874 Z-5.0000 S1
G1 F1000 X235.1075 Y59.6849 Z-5.0000 S1
G1 F1000 X235.1082 Y59.6824 Z-5.0000 S1
G1 F1000 X235.1089 Y59.6799 Z-5.0000 S1
G1 F1000 X235.1097 Y59.6774 Z-5.0000 S1
G1 F1000 X235.1105 Y59.6749 Z-5.0000 S1
G1 F1000 X235.1114 Y59.6725 Z-5.0000 S1
G1 F1000 X235.1123 Y59.6700 Z-5.0000 S1
G1 F1000 X235.1132 Y59.6676 Z-5.0000 S1
G1 F1000 X235.1141 Y59.6651 Z-5.0000 S1
G1 F1000 X235.1151 Y59.6627 Z-5.0000 S1
G1 F1000 X235.1161 Y59.6603 Z-5.0000 S1
G1 F1000 X235.1172 Y59.6579 Z-5.0000 S1
G1 F1000 X235.1182 Y59.6556 Z-5.0000 S1
G1 F1000 X235.1193 Y59.6532 Z-5.0000 S1
G1 F1000 X235.1205 Y59.6508 Z-5.0000 S1
G1 F1000 X235.1216 Y59.6485 Z-5.0000 S1
G1 F1000 X235.1228 Y59.6462 Z-5.0000 S1
G1 F1000 X235.1241 Y59.6439 Z-5.0000 S1
G1 F1000 X235.1253 Y59.6416 Z-5.0000 S1
G1 F1000 X235.1266 Y59.6393 Z-5.0000 S1
G1 F1000 X235.1279 Y59.6371 Z-5.0000 S1
G1 F1000 X235.1293 Y59.6348 Z-5.0000 S1
G1 F1000 X235.1306 Y59.6326 Z-5.0000 S1
G1 F1000 X235.1320 Y59.6304 Z-5.0000 S1
G1 F1000 X235.1335 Y59.6282 Z-5.0000 S1
G1 F1000 X235.1349 Y59.6261 Z-5.0000 S1
G1 F1000 X235.1364 Y59.6239 Z-5.0000 S1
G1 F1000 X235.1379 Y59.6218 Z-5.0000 S1
G1 F1000 X235.1395 Y59.6197 Z-5.0000 S1
G1 F1000 X235.1410 Y59.6176 Z-5.0000 S1
G1 F1000 X235.1426 Y59.6156 Z-5.0000 S1
G1 F1000 X235.1443 Y59.6135 Z-5.0000 S1
G1 F1000 X235.1459 Y59.6115 Z-5.0000 S1
G1 F1000 X235.1476 Y59.6095 Z-5.0000 S1
G1 F1000 X235.1493 Y59.6075 Z-5.0000 S1
G1 F1000 X235.1510 Y59.6056 Z-5.0000 S1
G1 F1000 X235.1528 Y59.6036 Z-5.0000 S1
G1 F1000 X235.1545 Y59.6017 Z-5.0000 S1
G1 F1000 X235.1563 Y59.5998 Z-5.0000 S1
G1 F1000 X235.1582 Y59.5980 Z-5.0000 S1
G1 F1000 X235.1600 Y59.5961 Z-5.0000 S1
G1 F1000 X235.1619 Y59.5943 Z-5.0000 S1
G1 F1000 X235.1638 Y59.5925 Z-5.0000 S1
G1 F1000 X235.1657 Y59.5908 Z-5.0000 S1
G1 F1000 X235.1677 Y59.5890 Z-5.0000 S1
G1 F1000 X235.1696 Y59.5873 Z-5.0000 S1
G1 F1000 X235.1716 Y59.5856 Z-5.0000 S1
G1 F1000 X235.1736 Y59.5840 Z-5.0000 S1
G1 F1000 X235.1757 Y59.5823 Z-5.0000 S1
G1 F1000 X235.1777 Y59.5807 Z-5.0000 S1
G1 F1000 X235.1798 Y59.5792 Z-5.0000 S1
G1 F1000 X235.1819 Y59.5776 Z-5.0000 S1
G1 F1000 X235.1840 Y59.5761 Z-5.0000 S1
G1 F1000 X235.1861 Y59.5746 Z-5.0000 S1
G1 F1000 X235.1883 Y59.5731 Z-5.0000 S1
G1 F1000 X235.1905 Y59.5717 Z-5.0000 S1
G1 F1000 X235.1927 Y59.5702 Z-5.0000 S1
G1 F1000 X235.1949 Y59.5689 Z-5.0000 S1
G1 F1000 X235.1971 Y59.5675 Z-5.0000 S1
G1 F1000 X235.1993 Y59.5662 Z-5.0000 S1
G1 F1000 X235.2016 Y59.5649 Z-5.0000 S1
G1 F1000 X235.2039 Y59.5636 Z-5.0000 S1
G1 F1000 X235.2062 Y59.5624 Z-5.0000 S1
G1 F1000 X235.2085 Y59.5612 Z-5.0000 S1
G1 F1000 X235.2108 Y59.5600 Z-5.0000 S1
G1 F1000 X235.2132 Y59.5588 Z-5.0000 S1
G1 F1000 X235.2155 Y59.5577 Z-5.0000 S1
G1 F1000 X235.2179 Y59.5566 Z-5.0000 S1
G1 F1000 X235.2203 Y59.5556 Z-5.0000 S1
G1 F1000 X235.2227 Y59.5546 Z-5.0000 S1
G1 F1000 X235.2251 Y59.5536 Z-5.0000 S1
G1 F1000 X235.2275 Y59.5526 Z-5.0000 S1
G1 F1000 X235.2299 Y59.5517 Z-5.0000 S1
G1 F1000 X235.2324 Y59.5508 Z-5.0000 S1
G1 F1000 X235.2349 Y59.5499 Z-5.0000 S1
G1 F1000 X235.2373 Y59.5491 Z-5.0000 S1
G1 F1000 X235.2398 Y59.5483 Z-5.0000 S1
G1 F1000 X235.2423 Y59.5475 Z-5.0000 S1
G1 F1000 X235.2448 Y59.5468 Z-5.0000 S1
G1 F1000 X235.2473 Y59.5461 Z-5.0000 S1
G1 F1000 X235.2498 Y59.5454 Z-5.0000 S1
G1 F1000 X235.2524 Y59.5448 Z-5.0000 S1
G1 F1000 X235.2549 Y59.5442 Z-5.0000 S1
G1 F1000 X235.2574 Y59.5436 Z-5.0000 S1
G1 F1000 X235.2600 Y59.5430 Z-5.0000 S1
G1 F1000 X235.2626 Y59.5425 Z-5.0000 S1
G1 F1000 X235.2651 Y59.5421 Z-5.0000 S1
G1 F1000 X235.2677 Y59.5416 Z-5.0000 S1
G1 F1000 X235.2703 Y59.5412 Z-5.0000 S1
G1 F1000 X235.2729 Y59.5409 Z-5.0000 S1
G1 F1000 X235.2754 Y59.5405 Z-5.0000 S1
G1 F1000 X235.2780 Y59.5402 Z-5.0000 S1
G1 F1000 X235.2806 Y59.5399 Z-5.0000 S1
G1 F1000 X235.2832 Y59.5397 Z-5.0000 S1
G1 F1000 X235.2858 Y59.5395 Z-5.0000 S1
G1 F1000 X235.2884 Y59.5393 Z-5.0000 S1
G1 F1000 X235.2910 Y59.5392 Z-5.0000 S1
G1 F1000 X235.2936 Y59.5391 Z-5.0000 S1
G1 F1000 X235.2962 Y59.5390 Z-5.0000 S1
G1 F1000 X235.2989 Y59.5390 Z-5.0000 S1
G1 F1000 X235.3015 Y59.5390 Z-5.0000 S1
G1 F1000 X235.3041 Y59.5390 Z-5.0000 S1
G1 F1000 X235.3067 Y59.5391 Z-5.0000 S1
G1 F1000 X235.3093 Y59.5392 Z-5.0000 S1
G1 F1000 X235.3119 Y59.5394 Z-5.0000 S1
G1 F1000 X235.3145 Y59.5395 Z-5.0000 S1
G1 F1000 X235.3171 Y59.5397 Z-5.0000 S1
G1 F1000 X235.3197 Y59.5400 Z-5.0000 S1
G1 F1000 X235.3000 Y59.7390 Z-5.0000 S1
G1 F300 Z-6.0000
G1 F1000 X235.1000 Y59.7390 Z-6.0000 S1
G1 F1000 X235.1000 Y59.7364 Z-6.0000 S1
G1 F1000 X235.1001 Y59.7338 Z-6.0000 S1
G1 F1000 X235.1002 Y59.7312 Z-6.0000 S1
G1 F1000 X235.1003 Y59.7286 Z-6.0000 S1
G1 F1000 X235.1004 Y59.7260 Z-6.0000 S1
G1 F1000 X235.1006 Y59.7234 Z-6.0000 S1
G1 F1000 X235.1008 Y59.7208 Z-6.0000 S1
G1 F1000 X235.1011 Y59.7182 Z-6.0000 S1
G1 F1000 X235.1014 Y59.7156 Z-6.0000 S1
G1 F1000 X235.1017 Y59.7130 Z-6.0000 S1
G1 F1000 X235.1021 Y59.7104 Z-6.0000 S1
G1 F1000 X235.1024 Y59.7078 Z-6.0000 S1
G1 F1000 X235.1029 Y59.7053 Z-6.0000 S1
G1 F1000 X235.1033 Y59.7027 Z-6.0000 S1
G1 F1000 X235.1038 Y59.7001 Z-6.0000 S1
G1 F1000 X235.1043 Y59.6976 Z-6.0000 S1
G1 F1000 X235.1049 Y59.6950 Z-6.0000 S1
G1 F1000 X235.1055 Y59.6925 Z-6.0000 S1
G1 F1000 X235.1061 Y59.6899 Z-6.0000 S1
G1 F1000 X235.1068 Y59.6874 Z-6.0000 S1
G1 F1000 X235.1075 Y59.6849 Z-6.0000 S1
G1 F1000 X235.1082 Y59.6824 Z-6.0000 S1
G1 F1000 X235.1089 Y59.6799 Z-6.0000 S1
G1 F1000 X235.1097 Y59.6774 Z-6.0000 S1
G1 F1000 X235.1105 Y59.6749 Z-6.0000 S1
G1 F1000 X235.1114 Y59.6725 Z-6.0000 S1
G1 F1000 X235.1123 Y59.6700 Z-6.0000 S1
G1 F1000 X235.1132 Y59.6676 Z-6.0000 S1
